; G-Code generated by Simplify3D(R) Version 3.1.0
; фев 27, 2019 at 9:59:58 
; Settings Summary
;   processName,Process1
;   applyToModels,rounded-autoclave-3mm
;   profileName,Magnum PP 0.5
;   profileVersion,2019-02-26 14:04:07
;   baseProfile,Default
;   printMaterial,ABS
;   printQuality,Medium
;   printExtruders,
;   extruderName,Primary Extruder
;   extruderToolheadNumber,0
;   extruderDiameter,0.5
;   extruderAutoWidth,1
;   extruderWidth,0.6
;   extrusionMultiplier,1
;   extruderUseRetract,1
;   extruderRetractionDistance,1.2
;   extruderExtraRestartDistance,0
;   extruderRetractionZLift,0.2
;   extruderRetractionSpeed,1800
;   extruderUseCoasting,0
;   extruderCoastingDistance,0.2
;   extruderUseWipe,0
;   extruderWipeDistance,1
;   primaryExtruder,0
;   layerHeight,0.15
;   topSolidLayers,8
;   bottomSolidLayers,8
;   perimeterOutlines,6
;   printPerimetersInsideOut,1
;   startPointOption,1
;   startPointOriginX,0
;   startPointOriginY,0
;   startPointOriginZ,300
;   sequentialIslands,0
;   spiralVaseMode,0
;   firstLayerHeightPercentage,90
;   firstLayerWidthPercentage,100
;   firstLayerUnderspeed,0.5
;   useRaft,0
;   raftExtruder,0
;   raftLayers,2
;   raftOffset,1
;   raftSeparationDistance,0
;   raftInfill,80
;   disableRaftBaseLayers,0
;   useSkirt,1
;   skirtExtruder,0
;   skirtLayers,1
;   skirtOutlines,7
;   skirtOffset,0
;   usePrimePillar,0
;   primePillarExtruder,999
;   primePillarWidth,12
;   primePillarLocation,7
;   primePillarSpeedMultiplier,1
;   useOozeShield,0
;   oozeShieldExtruder,999
;   oozeShieldOffset,2
;   oozeShieldOutlines,1
;   oozeShieldSidewallShape,1
;   oozeShieldSidewallAngle,30
;   oozeShieldSpeedMultiplier,1
;   infillExtruder,0
;   internalInfillPattern,Wiggle
;   externalInfillPattern,Concentric
;   infillPercentage,100
;   outlineOverlapPercentage,50
;   infillExtrusionWidthPercentage,100
;   minInfillLength,5
;   infillLayerInterval,1
;   infillAngles,0
;   overlapInfillAngles,0
;   generateSupport,0
;   supportExtruder,0
;   supportInfillPercentage,30
;   supportExtraInflation,0
;   denseSupportLayers,0
;   denseSupportInfillPercentage,70
;   supportLayerInterval,1
;   supportHorizontalPartOffset,0.3
;   supportUpperSeparationLayers,1
;   supportLowerSeparationLayers,1
;   supportType,0
;   supportGridSpacing,4
;   maxOverhangAngle,45
;   supportAngles,0
;   temperatureName,Extruder,Bed
;   temperatureNumber,0,0
;   temperatureSetpointCount,1,1
;   temperatureSetpointLayers,1,1
;   temperatureSetpointTemperatures,240,25
;   temperatureStabilizeAtStartup,1,1
;   temperatureHeatedBed,0,1
;   temperatureRelayBetweenLayers,0,0
;   temperatureRelayBetweenLoops,0,0
;   fanLayers,1
;   fanSpeeds,0
;   blipFanToFullPower,0
;   adjustSpeedForCooling,1
;   minSpeedLayerTime,15
;   minCoolingSpeedSlowdown,20
;   increaseFanForCooling,0
;   minFanLayerTime,45
;   maxCoolingFanSpeed,100
;   increaseFanForBridging,0
;   bridgingFanSpeed,100
;   use5D,1
;   relativeEdistances,0
;   allowEaxisZeroing,1
;   independentExtruderAxes,0
;   includeM10123,0
;   stickySupport,1
;   applyToolheadOffsets,0
;   gcodeXoffset,0
;   gcodeYoffset,0
;   gcodeZoffset,0.05
;   overrideMachineDefinition,1
;   machineTypeOverride,0
;   strokeXoverride,260
;   strokeYoverride,190
;   strokeZoverride,180
;   originOffsetXoverride,0
;   originOffsetYoverride,0
;   originOffsetZoverride,0
;   homeXdirOverride,-1
;   homeYdirOverride,-1
;   homeZdirOverride,-1
;   flipXoverride,1
;   flipYoverride,-1
;   flipZoverride,1
;   toolheadOffsets,0,0|0,0|0,0|0,0|0,0|0,0
;   overrideFirmwareConfiguration,0
;   firmwareTypeOverride,RepRap (Marlin/Repetier/Sprinter)
;   GPXconfigOverride,r2
;   baudRateOverride,115200
;   overridePrinterModels,0
;   printerModelsOverride
;   startingGcode,G28 ; home all axes
;   layerChangeGcode,
;   retractionGcode,
;   toolChangeGcode,
;   endingGcode,G91,G1 Z20,,M104 S0 ; turn off extruder,M140 S0 ; turn off bed,M84 ; disable motors
;   exportFileFormat,gcode
;   celebration,0
;   celebrationSong,Random Song
;   postProcessing,
;   defaultSpeed,700
;   outlineUnderspeed,0.5
;   solidInfillUnderspeed,0.8
;   supportUnderspeed,0.8
;   rapidXYspeed,4800
;   rapidZspeed,1000
;   minBridgingArea,50
;   bridgingExtraInflation,1
;   bridgingExtrusionMultiplier,1
;   bridgingSpeedMultiplier,0.8
;   filamentDiameter,1.75
;   filamentPricePerKg,600
;   filamentDensity,1.25
;   useMinPrintHeight,0
;   minPrintHeight,105
;   useMaxPrintHeight,0
;   maxPrintHeight,16
;   useDiaphragm,0
;   diaphragmLayerInterval,20
;   robustSlicing,1
;   mergeAllIntoSolid,0
;   onlyRetractWhenCrossingOutline,1
;   retractBetweenLayers,1
;   useRetractionMinTravel,0
;   retractionMinTravel,3
;   retractWhileWiping,0
;   onlyWipeOutlines,1
;   avoidCrossingOutline,1
;   maxMovementDetourFactor,3
;   toolChangeRetractionDistance,12
;   toolChangeExtraRestartDistance,-0.5
;   toolChangeRetractionSpeed,600
;   allowThinWallGapFill,1
;   thinWallAllowedOverlapPercentage,20
;   horizontalSizeCompensation,0
G90
M82
M106 S0
M140 S25
M190 S25
M104 S240 T0
M109 S240 T0
G28 ; home all axes
G92 E0
G1 E-1.2000 F1800
G1 Z0.385 F1000
; layer 1, Z = 0.135
T0
; tool H0.150 W0.600
; skirt
G1 X84.172 Y82.797 F4800
G1 Z0.185 F1000
G1 E0.0000 F540
G92 E0
G1 X85.110 Y81.892 E0.0488 F350
G1 X85.264 Y81.758 E0.0564
G1 X86.291 Y80.955 E0.1052
G1 X86.458 Y80.838 E0.1128
G1 X87.556 Y80.152 E0.1613
G1 X87.720 Y80.061 E0.1683
G1 X88.699 Y79.572 E0.2093
G1 X88.855 Y79.503 E0.2156
G1 X89.873 Y79.102 E0.2566
G1 X90.051 Y79.042 E0.2636
G1 X91.287 Y78.687 E0.3117
G1 X91.469 Y78.644 E0.3187
G1 X92.554 Y78.443 E0.3600
G1 X92.740 Y78.418 E0.3670
G1 X94.021 Y78.306 E0.4151
G1 X94.208 Y78.299 E0.4221
G1 X95.311 Y78.308 E0.4634
G1 X95.498 Y78.319 E0.4704
G1 X96.778 Y78.454 E0.5186
G1 X96.962 Y78.482 E0.5256
G1 X98.018 Y78.697 E0.5659
G1 X98.151 Y78.729 E0.5710
G1 X98.820 Y78.914 E0.5970
G1 X98.966 Y78.961 E0.6027
G1 X100.143 Y79.389 E0.6496
G1 X100.284 Y79.447 E0.6553
G1 X100.916 Y79.735 E0.6813
G1 X101.038 Y79.796 E0.6864
G1 X101.963 Y80.298 E0.7257
G1 X102.080 Y80.367 E0.7308
G1 X102.666 Y80.740 E0.7568
G1 X102.791 Y80.828 E0.7625
G1 X103.812 Y81.597 E0.8104
G1 X103.968 Y81.728 E0.8180
G1 X104.902 Y82.599 E0.8658
G1 X105.010 Y82.708 E0.8715
G1 X105.479 Y83.220 E0.8975
G1 X105.568 Y83.323 E0.9026
G1 X106.223 Y84.147 E0.9420
G1 X106.304 Y84.256 E0.9470
G1 X106.682 Y84.807 E0.9721
G1 X106.738 Y84.893 E0.9759
G1 X107.088 Y85.463 E1.0009
G1 X107.155 Y85.582 E1.0060
G1 X107.640 Y86.515 E1.0454
G1 X107.699 Y86.638 E1.0505
G1 X107.966 Y87.251 E1.0755
G1 X108.004 Y87.346 E1.0793
G1 X108.241 Y87.980 E1.1047
G1 X108.289 Y88.126 E1.1104
G1 X108.639 Y89.346 E1.1579
G1 X108.682 Y89.528 E1.1649
G1 X108.878 Y90.588 E1.2052
G1 X108.898 Y90.723 E1.2103
G1 X108.977 Y91.412 E1.2363
G1 X108.988 Y91.565 E1.2420
G1 X109.033 Y92.842 E1.2898
G1 X109.029 Y93.046 E1.2975
G1 X108.940 Y94.321 E1.3453
G1 X108.924 Y94.473 E1.3510
G1 X108.821 Y95.160 E1.3770
G1 X108.796 Y95.294 E1.3821
G1 X108.563 Y96.346 E1.4224
G1 X108.514 Y96.527 E1.4294
G1 X108.116 Y97.750 E1.4776
G1 X108.050 Y97.925 E1.4846
G1 X107.620 Y98.913 E1.5249
G1 X107.561 Y99.036 E1.5300
G1 X107.241 Y99.652 E1.5560
G1 X107.165 Y99.785 E1.5617
G1 X106.501 Y100.847 E1.6086
G1 X106.415 Y100.974 E1.6143
G1 X106.002 Y101.532 E1.6403
G1 X105.917 Y101.638 E1.6454
G1 X105.234 Y102.439 E1.6847
G1 X105.142 Y102.539 E1.6898
G1 X104.673 Y103.016 E1.7149
G1 X104.599 Y103.087 E1.7187
G1 X104.106 Y103.539 E1.7437
G1 X104.002 Y103.628 E1.7488
G1 X103.179 Y104.283 E1.7882
G1 X103.070 Y104.364 E1.7933
G1 X102.518 Y104.742 E1.8183
G1 X102.433 Y104.798 E1.8221
G1 X101.855 Y105.152 E1.8475
G1 X101.722 Y105.227 E1.8532
G1 X100.591 Y105.803 E1.9007
G1 X100.420 Y105.880 E1.9077
G1 X99.393 Y106.284 E1.9490
G1 X99.216 Y106.344 E1.9560
G1 X97.980 Y106.699 E2.0041
G1 X97.797 Y106.742 E2.0111
G1 X96.738 Y106.938 E2.0515
G1 X96.603 Y106.958 E2.0566
G1 X95.913 Y107.037 E2.0825
G1 X95.760 Y107.048 E2.0883
G1 X94.509 Y107.092 E2.1351
G1 X94.356 Y107.091 E2.1409
G1 X93.653 Y107.060 E2.1672
G1 X93.501 Y107.048 E2.1729
G1 X92.241 Y106.893 E2.2204
G1 X92.057 Y106.861 E2.2274
G1 X90.979 Y106.622 E2.2687
G1 X90.799 Y106.573 E2.2757
G1 X89.576 Y106.175 E2.3238
G1 X89.401 Y106.109 E2.3308
G1 X88.389 Y105.669 E2.3721
G1 X88.221 Y105.586 E2.3791
G1 X87.096 Y104.963 E2.4272
G1 X86.937 Y104.864 E2.4342
G1 X86.049 Y104.254 E2.4745
G1 X85.939 Y104.173 E2.4796
G1 X85.396 Y103.740 E2.5056
G1 X85.280 Y103.640 E2.5114
G1 X84.346 Y102.769 E2.5591
G1 X84.204 Y102.623 E2.5668
G1 X83.366 Y101.658 E2.6146
G1 X83.270 Y101.539 E2.6203
G1 X82.857 Y100.981 E2.6463
G1 X82.780 Y100.868 E2.6514
G1 X82.201 Y99.959 E2.6917
G1 X82.108 Y99.797 E2.6987
G1 X81.524 Y98.651 E2.7469
G1 X81.447 Y98.480 E2.7539
G1 X81.043 Y97.454 E2.7951
G1 X80.982 Y97.276 E2.8021
G1 X80.628 Y96.040 E2.8503
G1 X80.585 Y95.858 E2.8573
G1 X80.384 Y94.773 E2.8986
G1 X80.359 Y94.587 E2.9056
G1 X80.246 Y93.306 E2.9537
G1 X80.239 Y93.119 E2.9607
G1 X80.249 Y92.016 E3.0020
G1 X80.259 Y91.829 E3.0090
G1 X80.394 Y90.550 E3.0571
G1 X80.422 Y90.365 E3.0641
G1 X80.642 Y89.284 E3.1054
G1 X80.688 Y89.102 E3.1124
G1 X81.067 Y87.864 E3.1609
G1 X81.137 Y87.672 E3.1685
G1 X81.643 Y86.480 E3.2170
G1 X81.724 Y86.311 E3.2240
G1 X82.250 Y85.342 E3.2652
G1 X82.348 Y85.182 E3.2722
G1 X83.072 Y84.108 E3.3207
G1 X83.195 Y83.945 E3.3283
G1 X84.032 Y82.947 E3.3771
G1 X84.172 Y82.797 E3.3847
G1 X84.600 Y83.218 F4800
G92 E0
G1 X85.515 Y82.334 E0.0476 F350
G1 X85.646 Y82.221 E0.0541
G1 X86.648 Y81.438 E0.1017
G1 X86.789 Y81.339 E0.1081
G1 X87.862 Y80.669 E0.1555
G1 X88.000 Y80.591 E0.1614
G1 X88.955 Y80.115 E0.2013
G1 X89.087 Y80.056 E0.2067
G1 X90.080 Y79.665 E0.2466
G1 X90.230 Y79.614 E0.2526
G1 X91.439 Y79.268 E0.2996
G1 X91.593 Y79.232 E0.3056
G1 X92.649 Y79.036 E0.3458
G1 X92.806 Y79.015 E0.3517
G1 X94.059 Y78.905 E0.3987
G1 X94.217 Y78.899 E0.4047
G1 X95.292 Y78.908 E0.4449
G1 X95.450 Y78.917 E0.4508
G1 X96.700 Y79.049 E0.4978
G1 X96.857 Y79.073 E0.5038
G1 X97.889 Y79.283 E0.5432
G1 X98.001 Y79.310 E0.5475
G1 X98.648 Y79.489 E0.5726
G1 X98.772 Y79.529 E0.5775
G1 X99.926 Y79.949 E0.6234
G1 X100.046 Y79.998 E0.6283
G1 X100.658 Y80.277 E0.6534
G1 X100.761 Y80.328 E0.6578
G1 X101.667 Y80.820 E0.6963
G1 X101.766 Y80.879 E0.7007
G1 X102.333 Y81.240 E0.7258
G1 X102.440 Y81.314 E0.7307
G1 X103.438 Y82.066 E0.7774
G1 X103.571 Y82.178 E0.7839
G1 X104.484 Y83.030 E0.8307
G1 X104.576 Y83.122 E0.8355
G1 X105.030 Y83.617 E0.8607
G1 X105.105 Y83.705 E0.8650
G1 X105.747 Y84.512 E0.9035
G1 X105.815 Y84.605 E0.9079
G1 X106.183 Y85.141 E0.9322
G1 X106.231 Y85.213 E0.9354
G1 X106.570 Y85.768 E0.9598
G1 X106.627 Y85.868 E0.9641
G1 X107.103 Y86.783 E1.0027
G1 X107.153 Y86.887 E1.0070
G1 X107.412 Y87.483 E1.0313
G1 X107.445 Y87.563 E1.0346
G1 X107.675 Y88.179 E1.0592
G1 X107.716 Y88.303 E1.0640
G1 X108.058 Y89.497 E1.1105
G1 X108.095 Y89.652 E1.1165
G1 X108.286 Y90.687 E1.1559
G1 X108.303 Y90.801 E1.1602
G1 X108.380 Y91.469 E1.1853
G1 X108.389 Y91.598 E1.1902
G1 X108.433 Y92.847 E1.2369
G1 X108.430 Y93.020 E1.2434
G1 X108.343 Y94.267 E1.2902
G1 X108.328 Y94.396 E1.2950
G1 X108.229 Y95.061 E1.3202
G1 X108.208 Y95.174 E1.3245
G1 X107.980 Y96.202 E1.3639
G1 X107.939 Y96.355 E1.3698
G1 X107.550 Y97.551 E1.4169
G1 X107.494 Y97.699 E1.4228
G1 X107.074 Y98.665 E1.4622
G1 X107.024 Y98.769 E1.4665
G1 X106.714 Y99.365 E1.4917
G1 X106.650 Y99.477 E1.4965
G1 X105.999 Y100.519 E1.5425
G1 X105.926 Y100.626 E1.5473
G1 X105.526 Y101.167 E1.5725
G1 X105.454 Y101.257 E1.5768
G1 X104.784 Y102.041 E1.6154
G1 X104.707 Y102.126 E1.6197
G1 X104.250 Y102.590 E1.6440
G1 X104.188 Y102.650 E1.6473
G1 X103.708 Y103.090 E1.6716
G1 X103.621 Y103.165 E1.6759
G1 X102.814 Y103.807 E1.7145
G1 X102.721 Y103.875 E1.7188
G1 X102.185 Y104.243 E1.7432
G1 X102.113 Y104.290 E1.7464
G1 X101.552 Y104.634 E1.7710
G1 X101.439 Y104.697 E1.7759
G1 X100.331 Y105.262 E1.8224
G1 X100.187 Y105.327 E1.8283
G1 X99.187 Y105.721 E1.8685
G1 X99.037 Y105.771 E1.8744
G1 X97.828 Y106.118 E1.9215
G1 X97.674 Y106.154 E1.9274
G1 X96.639 Y106.346 E1.9668
G1 X96.525 Y106.363 E1.9711
G1 X95.857 Y106.439 E1.9963
G1 X95.728 Y106.449 E2.0011
G1 X94.500 Y106.492 E2.0471
G1 X94.370 Y106.491 E2.0519
G1 X93.691 Y106.461 E2.0774
G1 X93.562 Y106.451 E2.0822
G1 X92.329 Y106.299 E2.1287
G1 X92.172 Y106.272 E2.1347
G1 X91.123 Y106.040 E2.1749
G1 X90.971 Y105.998 E2.1808
G1 X89.775 Y105.609 E2.2278
G1 X89.627 Y105.553 E2.2338
G1 X88.641 Y105.125 E2.2740
G1 X88.499 Y105.055 E2.2799
G1 X87.399 Y104.445 E2.3269
G1 X87.265 Y104.362 E2.3329
G1 X86.397 Y103.765 E2.3723
G1 X86.305 Y103.697 E2.3766
G1 X85.779 Y103.278 E2.4017
G1 X85.680 Y103.194 E2.4066
G1 X84.766 Y102.341 E2.4533
G1 X84.646 Y102.217 E2.4598
G1 X83.826 Y101.273 E2.5066
G1 X83.745 Y101.172 E2.5114
G1 X83.345 Y100.632 E2.5366
G1 X83.280 Y100.537 E2.5409
G1 X82.714 Y99.649 E2.5803
G1 X82.636 Y99.512 E2.5862
G1 X82.065 Y98.391 E2.6333
G1 X82.000 Y98.247 E2.6392
G1 X81.606 Y97.247 E2.6794
G1 X81.555 Y97.097 E2.6853
G1 X81.208 Y95.888 E2.7324
G1 X81.172 Y95.734 E2.7383
G1 X80.976 Y94.678 E2.7785
G1 X80.955 Y94.521 E2.7844
G1 X80.845 Y93.268 E2.8315
G1 X80.839 Y93.110 E2.8374
G1 X80.849 Y92.035 E2.8776
G1 X80.858 Y91.877 E2.8835
G1 X80.989 Y90.627 E2.9306
G1 X81.013 Y90.470 E2.9365
G1 X81.227 Y89.417 E2.9767
G1 X81.266 Y89.264 E2.9826
G1 X81.636 Y88.054 E3.0300
G1 X81.695 Y87.892 E3.0364
G1 X82.189 Y86.728 E3.0838
G1 X82.258 Y86.585 E3.0897
G1 X82.771 Y85.641 E3.1299
G1 X82.853 Y85.505 E3.1358
G1 X83.560 Y84.457 E3.1831
G1 X83.664 Y84.319 E3.1896
G1 X84.482 Y83.345 E3.2372
G1 X84.600 Y83.218 E3.2437
G1 X85.028 Y83.639 F4800
G92 E0
G1 X85.921 Y82.777 E0.0464 F350
G1 X86.027 Y82.684 E0.0517
G1 X87.005 Y81.920 E0.0981
G1 X87.121 Y81.839 E0.1034
G1 X88.168 Y81.185 E0.1496
G1 X88.281 Y81.122 E0.1545
G1 X89.211 Y80.658 E0.1934
G1 X89.319 Y80.610 E0.1978
G1 X90.286 Y80.229 E0.2367
G1 X90.409 Y80.187 E0.2415
G1 X91.590 Y79.849 E0.2875
G1 X91.716 Y79.819 E0.2924
G1 X92.745 Y79.628 E0.3315
G1 X92.873 Y79.611 E0.3363
G1 X94.097 Y79.504 E0.3823
G1 X94.226 Y79.499 E0.3872
G1 X95.272 Y79.508 E0.4263
G1 X95.401 Y79.515 E0.4311
G1 X96.623 Y79.644 E0.4771
G1 X96.751 Y79.664 E0.4820
G1 X97.759 Y79.869 E0.5204
G1 X97.850 Y79.891 E0.5240
G1 X98.477 Y80.064 E0.5483
G1 X98.578 Y80.097 E0.5522
G1 X99.710 Y80.509 E0.5973
G1 X99.808 Y80.549 E0.6013
G1 X100.399 Y80.819 E0.6256
G1 X100.484 Y80.861 E0.6291
G1 X101.372 Y81.343 E0.6670
G1 X101.453 Y81.391 E0.6705
G1 X102.001 Y81.740 E0.6948
G1 X102.088 Y81.800 E0.6988
G1 X103.065 Y82.536 E0.7445
G1 X103.173 Y82.627 E0.7498
G1 X104.067 Y83.461 E0.7955
G1 X104.141 Y83.536 E0.7995
G1 X104.580 Y84.015 E0.8238
G1 X104.642 Y84.087 E0.8273
G1 X105.270 Y84.877 E0.8651
G1 X105.326 Y84.953 E0.8687
G1 X105.685 Y85.474 E0.8923
G1 X105.723 Y85.533 E0.8950
G1 X106.053 Y86.072 E0.9186
G1 X106.100 Y86.154 E0.9222
G1 X106.566 Y87.051 E0.9600
G1 X106.607 Y87.136 E0.9635
G1 X106.859 Y87.715 E0.9871
G1 X106.885 Y87.781 E0.9898
G1 X107.109 Y88.379 E1.0137
G1 X107.142 Y88.479 E1.0176
G1 X107.478 Y89.649 E1.0632
G1 X107.507 Y89.775 E1.0680
G1 X107.695 Y90.786 E1.1065
G1 X107.709 Y90.879 E1.1100
G1 X107.782 Y91.525 E1.1343
G1 X107.790 Y91.631 E1.1383
G1 X107.833 Y92.853 E1.1840
G1 X107.830 Y92.994 E1.1893
G1 X107.745 Y94.214 E1.2351
G1 X107.733 Y94.319 E1.2390
G1 X107.637 Y94.962 E1.2634
G1 X107.620 Y95.055 E1.2669
G1 X107.398 Y96.058 E1.3054
G1 X107.363 Y96.183 E1.3102
G1 X106.984 Y97.352 E1.3562
G1 X106.938 Y97.473 E1.3610
G1 X106.528 Y98.416 E1.3995
G1 X106.487 Y98.501 E1.4030
G1 X106.187 Y99.077 E1.4273
G1 X106.135 Y99.169 E1.4313
G1 X105.496 Y100.191 E1.4764
G1 X105.436 Y100.279 E1.4804
G1 X105.050 Y100.801 E1.5047
G1 X104.991 Y100.875 E1.5082
G1 X104.335 Y101.643 E1.5460
G1 X104.271 Y101.713 E1.5495
G1 X103.828 Y102.164 E1.5732
G1 X103.777 Y102.213 E1.5759
G1 X103.311 Y102.640 E1.5995
G1 X103.239 Y102.702 E1.6030
G1 X102.448 Y103.330 E1.6408
G1 X102.373 Y103.386 E1.6444
G1 X101.852 Y103.745 E1.6680
G1 X101.792 Y103.783 E1.6707
G1 X101.248 Y104.116 E1.6945
G1 X101.156 Y104.168 E1.6985
G1 X100.072 Y104.721 E1.7440
G1 X99.953 Y104.774 E1.7489
