; G-Code generated by Simplify3D(R) Version 3.1.0
; фев 22, 2019 at 9:30:05 
; Settings Summary
;   processName,Process1
;   applyToModels,rounded-autoclave,rounded-autoclave(2)
;   profileName,Magnum PP 0.5 (modified)
;   profileVersion,2019-02-18 12:54:40
;   baseProfile,Default
;   printMaterial,ABS
;   printQuality,Medium
;   printExtruders,
;   extruderName,Primary Extruder
;   extruderToolheadNumber,0
;   extruderDiameter,0.5
;   extruderAutoWidth,1
;   extruderWidth,0.6
;   extrusionMultiplier,1
;   extruderUseRetract,1
;   extruderRetractionDistance,1.2
;   extruderExtraRestartDistance,0
;   extruderRetractionZLift,0.2
;   extruderRetractionSpeed,1800
;   extruderUseCoasting,0
;   extruderCoastingDistance,0.2
;   extruderUseWipe,0
;   extruderWipeDistance,1
;   primaryExtruder,0
;   layerHeight,0.25
;   topSolidLayers,4
;   bottomSolidLayers,4
;   perimeterOutlines,4
;   printPerimetersInsideOut,1
;   startPointOption,1
;   startPointOriginX,0
;   startPointOriginY,0
;   startPointOriginZ,300
;   sequentialIslands,0
;   spiralVaseMode,0
;   firstLayerHeightPercentage,90
;   firstLayerWidthPercentage,100
;   firstLayerUnderspeed,0.5
;   useRaft,0
;   raftExtruder,0
;   raftLayers,2
;   raftOffset,1
;   raftSeparationDistance,0
;   raftInfill,80
;   disableRaftBaseLayers,0
;   useSkirt,1
;   skirtExtruder,0
;   skirtLayers,1
;   skirtOutlines,7
;   skirtOffset,0
;   usePrimePillar,0
;   primePillarExtruder,999
;   primePillarWidth,12
;   primePillarLocation,7
;   primePillarSpeedMultiplier,1
;   useOozeShield,0
;   oozeShieldExtruder,999
;   oozeShieldOffset,2
;   oozeShieldOutlines,1
;   oozeShieldSidewallShape,1
;   oozeShieldSidewallAngle,30
;   oozeShieldSpeedMultiplier,1
;   infillExtruder,0
;   internalInfillPattern,Rectilinear
;   externalInfillPattern,Concentric
;   infillPercentage,100
;   outlineOverlapPercentage,50
;   infillExtrusionWidthPercentage,100
;   minInfillLength,5
;   infillLayerInterval,1
;   infillAngles,45,-45
;   overlapInfillAngles,0
;   generateSupport,0
;   supportExtruder,0
;   supportInfillPercentage,30
;   supportExtraInflation,0
;   denseSupportLayers,0
;   denseSupportInfillPercentage,70
;   supportLayerInterval,1
;   supportHorizontalPartOffset,0.3
;   supportUpperSeparationLayers,1
;   supportLowerSeparationLayers,1
;   supportType,0
;   supportGridSpacing,4
;   maxOverhangAngle,45
;   supportAngles,0
;   temperatureName,Extruder,Bed
;   temperatureNumber,0,0
;   temperatureSetpointCount,2,1
;   temperatureSetpointLayers,1,3,1
;   temperatureSetpointTemperatures,230,210,25
;   temperatureStabilizeAtStartup,1,1
;   temperatureHeatedBed,0,1
;   temperatureRelayBetweenLayers,0,0
;   temperatureRelayBetweenLoops,0,0
;   fanLayers,1
;   fanSpeeds,0
;   blipFanToFullPower,0
;   adjustSpeedForCooling,1
;   minSpeedLayerTime,15
;   minCoolingSpeedSlowdown,20
;   increaseFanForCooling,0
;   minFanLayerTime,45
;   maxCoolingFanSpeed,100
;   increaseFanForBridging,0
;   bridgingFanSpeed,100
;   use5D,1
;   relativeEdistances,0
;   allowEaxisZeroing,1
;   independentExtruderAxes,0
;   includeM10123,0
;   stickySupport,1
;   applyToolheadOffsets,0
;   gcodeXoffset,0
;   gcodeYoffset,0
;   gcodeZoffset,0.05
;   overrideMachineDefinition,1
;   machineTypeOverride,0
;   strokeXoverride,260
;   strokeYoverride,190
;   strokeZoverride,180
;   originOffsetXoverride,0
;   originOffsetYoverride,0
;   originOffsetZoverride,0
;   homeXdirOverride,-1
;   homeYdirOverride,-1
;   homeZdirOverride,-1
;   flipXoverride,1
;   flipYoverride,-1
;   flipZoverride,1
;   toolheadOffsets,0,0|0,0|0,0|0,0|0,0|0,0
;   overrideFirmwareConfiguration,0
;   firmwareTypeOverride,RepRap (Marlin/Repetier/Sprinter)
;   GPXconfigOverride,r2
;   baudRateOverride,115200
;   overridePrinterModels,0
;   printerModelsOverride
;   startingGcode,G28 ; home all axes
;   layerChangeGcode,
;   retractionGcode,
;   toolChangeGcode,
;   endingGcode,G91,G1 Z20,,M104 S0 ; turn off extruder,M140 S0 ; turn off bed,M84 ; disable motors
;   exportFileFormat,gcode
;   celebration,0
;   celebrationSong,Random Song
;   postProcessing,
;   defaultSpeed,1000
;   outlineUnderspeed,0.5
;   solidInfillUnderspeed,0.8
;   supportUnderspeed,0.8
;   rapidXYspeed,4800
;   rapidZspeed,1000
;   minBridgingArea,50
;   bridgingExtraInflation,1
;   bridgingExtrusionMultiplier,1
;   bridgingSpeedMultiplier,0.8
;   filamentDiameter,1.75
;   filamentPricePerKg,600
;   filamentDensity,1.25
;   useMinPrintHeight,0
;   minPrintHeight,105
;   useMaxPrintHeight,0
;   maxPrintHeight,16
;   useDiaphragm,0
;   diaphragmLayerInterval,20
;   robustSlicing,1
;   mergeAllIntoSolid,0
;   onlyRetractWhenCrossingOutline,1
;   retractBetweenLayers,1
;   useRetractionMinTravel,0
;   retractionMinTravel,3
;   retractWhileWiping,0
;   onlyWipeOutlines,1
;   avoidCrossingOutline,1
;   maxMovementDetourFactor,3
;   toolChangeRetractionDistance,12
;   toolChangeExtraRestartDistance,-0.5
;   toolChangeRetractionSpeed,600
;   allowThinWallGapFill,1
;   thinWallAllowedOverlapPercentage,20
;   horizontalSizeCompensation,0
G90
M82
M106 S0
M140 S25
M190 S25
M104 S230 T0
M109 S230 T0
G28 ; home all axes
G92 E0
G1 E-1.2000 F1800
G1 Z0.475 F1000
; layer 1, Z = 0.225
T0
; tool H0.250 W0.600
; skirt
G1 X103.937 Y83.585 F4800
G1 Z0.275 F1000
G1 E0.0000 F540
G92 E0
G1 X104.732 Y82.733 E0.0727 F500
G1 X104.866 Y82.602 E0.0844
G1 X105.627 Y81.929 E0.1477
G1 X105.773 Y81.812 E0.1594
G1 X106.729 Y81.117 E0.2331
G1 X106.885 Y81.015 E0.2448
G1 X107.761 Y80.499 E0.3081
G1 X107.926 Y80.412 E0.3198
G1 X108.997 Y79.912 E0.3935
G1 X109.171 Y79.841 E0.4052
G1 X110.128 Y79.502 E0.4685
G1 X110.308 Y79.448 E0.4802
G1 X111.462 Y79.160 E0.5544
G1 X111.663 Y79.121 E0.5672
G1 X112.850 Y78.955 E0.6419
G1 X113.053 Y78.937 E0.6547
G1 X114.243 Y78.895 E0.7289
G1 X114.430 Y78.898 E0.7405
G1 X115.444 Y78.960 E0.8039
G1 X115.630 Y78.980 E0.8156
G1 X116.797 Y79.165 E0.8893
G1 X116.980 Y79.203 E0.9009
G1 X117.964 Y79.458 E0.9643
G1 X118.143 Y79.513 E0.9760
G1 X119.261 Y79.920 E1.0502
G1 X119.449 Y80.000 E1.0629
G1 X120.519 Y80.522 E1.1372
G1 X120.683 Y80.612 E1.1488
G1 X121.549 Y81.143 E1.2122
G1 X121.704 Y81.248 E1.2239
G1 X122.654 Y81.964 E1.2981
G1 X122.811 Y82.095 E1.3108
G1 X123.681 Y82.906 E1.3850
G1 X123.811 Y83.040 E1.3966
G1 X124.484 Y83.801 E1.4600
G1 X124.602 Y83.947 E1.4717
G1 X125.296 Y84.903 E1.5454
G1 X125.399 Y85.060 E1.5570
G1 X125.915 Y85.935 E1.6204
G1 X126.002 Y86.101 E1.6321
G1 X126.494 Y87.156 E1.7047
G1 X126.553 Y87.297 E1.7143
G1 X126.624 Y87.485 E1.7268
G1 X126.736 Y87.178 E1.7472
G1 X126.794 Y87.036 E1.7567
G1 X127.053 Y86.468 E1.7957
G1 X127.097 Y86.376 E1.8021
G1 X127.382 Y85.829 E1.8405
G1 X127.449 Y85.710 E1.8490
G1 X127.953 Y84.888 E1.9092
G1 X128.028 Y84.774 E1.9177
G1 X128.386 Y84.272 E1.9561
G1 X128.448 Y84.191 E1.9625
G1 X128.837 Y83.701 E2.0015
G1 X128.937 Y83.585 E2.0110
G1 X129.732 Y82.733 E2.0837
G1 X129.866 Y82.602 E2.0954
G1 X130.627 Y81.929 E2.1587
G1 X130.773 Y81.812 E2.1704
G1 X131.729 Y81.117 E2.2441
G1 X131.885 Y81.015 E2.2558
G1 X132.761 Y80.499 E2.3191
G1 X132.926 Y80.412 E2.3308
G1 X133.997 Y79.912 E2.4045
G1 X134.171 Y79.841 E2.4162
G1 X135.128 Y79.502 E2.4795
G1 X135.308 Y79.448 E2.4912
G1 X136.462 Y79.160 E2.5654
G1 X136.663 Y79.121 E2.5782
G1 X137.850 Y78.955 E2.6529
G1 X138.053 Y78.937 E2.6657
G1 X139.243 Y78.895 E2.7399
G1 X139.430 Y78.898 E2.7516
G1 X140.444 Y78.960 E2.8149
G1 X140.630 Y78.980 E2.8266
G1 X141.797 Y79.165 E2.9003
G1 X141.980 Y79.203 E2.9120
G1 X142.964 Y79.458 E2.9753
G1 X143.143 Y79.513 E2.9870
G1 X144.253 Y79.917 E3.0607
G1 X144.426 Y79.990 E3.0724
G1 X145.343 Y80.427 E3.1357
G1 X145.508 Y80.516 E3.1474
G1 X146.528 Y81.129 E3.2216
G1 X146.697 Y81.243 E3.2344
G1 X147.655 Y81.964 E3.3091
G1 X147.811 Y82.095 E3.3218
G1 X148.681 Y82.906 E3.3960
G1 X148.811 Y83.040 E3.4077
G1 X149.484 Y83.801 E3.4710
G1 X149.602 Y83.947 E3.4827
G1 X150.296 Y84.903 E3.5564
G1 X150.399 Y85.060 E3.5681
G1 X150.915 Y85.935 E3.6314
G1 X151.002 Y86.101 E3.6431
G1 X151.494 Y87.156 E3.7157
G1 X151.553 Y87.297 E3.7253
G1 X151.772 Y87.883 E3.7643
G1 X151.806 Y87.979 E3.7706
G1 X151.991 Y88.567 E3.8091
G1 X152.027 Y88.698 E3.8176
G1 X152.253 Y89.637 E3.8777
G1 X152.280 Y89.770 E3.8862
G1 X152.386 Y90.403 E3.9263
G1 X152.405 Y90.555 E3.9358
G1 X152.508 Y91.724 E4.0090
G1 X152.515 Y91.928 E4.0217
G1 X152.494 Y93.126 E4.0965
G1 X152.480 Y93.330 E4.1092
G1 X152.334 Y94.520 E4.1840
G1 X152.298 Y94.721 E4.1967
G1 X152.035 Y95.864 E4.2698
G1 X151.994 Y96.012 E4.2794
G1 X151.801 Y96.624 E4.3194
G1 X151.756 Y96.753 E4.3279
G1 X151.396 Y97.666 E4.3892
G1 X151.327 Y97.822 E4.3998
G1 X150.877 Y98.723 E4.4626
G1 X150.786 Y98.887 E4.4743
G1 X150.169 Y99.874 E4.5469
G1 X150.083 Y100.001 E4.5565
G1 X149.711 Y100.503 E4.5954
G1 X149.648 Y100.584 E4.6018
G1 X149.256 Y101.060 E4.6403
G1 X149.166 Y101.162 E4.6487
G1 X148.501 Y101.862 E4.7090
G1 X148.404 Y101.958 E4.7175
G1 X147.930 Y102.392 E4.7575
G1 X147.813 Y102.491 E4.7671
G1 X146.889 Y103.213 E4.8402
G1 X146.722 Y103.330 E4.8530
G1 X145.727 Y103.952 E4.9261
G1 X145.594 Y104.028 E4.9357
G1 X145.024 Y104.324 E4.9757
G1 X144.901 Y104.383 E4.9842
G1 X144.017 Y104.767 E5.0444
G1 X143.890 Y104.817 E5.0529
G1 X143.309 Y105.023 E5.0913
G1 X143.212 Y105.055 E5.0977
G1 X142.621 Y105.230 E5.1361
G1 X142.489 Y105.264 E5.1446
G1 X141.530 Y105.476 E5.2059
G1 X141.362 Y105.506 E5.2165
G1 X140.364 Y105.637 E5.2793
G1 X140.177 Y105.653 E5.2910
G1 X139.013 Y105.694 E5.3636
G1 X138.860 Y105.693 E5.3732
G1 X138.236 Y105.666 E5.4121
G1 X138.134 Y105.659 E5.4185
G1 X137.520 Y105.599 E5.4569
G1 X137.385 Y105.582 E5.4654
G1 X136.433 Y105.422 E5.5256
G1 X136.300 Y105.395 E5.5341
G1 X135.701 Y105.251 E5.5725
G1 X135.602 Y105.225 E5.5789
G1 X135.011 Y105.050 E5.6174
G1 X134.882 Y105.007 E5.6259
G1 X133.978 Y104.669 E5.6860
G1 X133.852 Y104.617 E5.6945
G1 X133.291 Y104.361 E5.7330
G1 X133.199 Y104.316 E5.7393
G1 X132.653 Y104.032 E5.7778
G1 X132.534 Y103.965 E5.7863
G1 X131.711 Y103.460 E5.8464
G1 X131.598 Y103.385 E5.8549
G1 X131.075 Y103.012 E5.8950
G1 X130.954 Y102.919 E5.9045
G1 X130.075 Y102.181 E5.9761
G1 X129.962 Y102.078 E5.9856
G1 X129.504 Y101.629 E6.0256
G1 X129.411 Y101.530 E6.0341
G1 X128.754 Y100.788 E6.0959
G1 X128.637 Y100.642 E6.1075
G1 X127.937 Y99.680 E6.1818
G1 X127.826 Y99.508 E6.1945
G1 X127.227 Y98.470 E6.2692
G1 X127.134 Y98.288 E6.2820
G1 X126.650 Y97.201 E6.3562
G1 X126.615 Y97.111 E6.3622
G1 X126.396 Y97.666 E6.3995
G1 X126.327 Y97.822 E6.4101
G1 X125.877 Y98.723 E6.4729
G1 X125.786 Y98.887 E6.4846
G1 X125.155 Y99.896 E6.5588
G1 X125.038 Y100.063 E6.5716
G1 X124.305 Y101.001 E6.6458
G1 X124.183 Y101.143 E6.6575
G1 X123.489 Y101.875 E6.7203
G1 X123.367 Y101.993 E6.7310
G1 X122.631 Y102.644 E6.7922
G1 X122.526 Y102.730 E6.8007
G1 X122.017 Y103.121 E6.8407
G1 X121.892 Y103.210 E6.8503
G1 X120.908 Y103.848 E6.9234
G1 X120.731 Y103.951 E6.9362
G1 X119.663 Y104.495 E7.0109
G1 X119.476 Y104.578 E7.0237
G1 X118.381 Y104.998 E7.0968
G1 X118.236 Y105.047 E7.1064
G1 X117.621 Y105.230 E7.1464
G1 X117.489 Y105.264 E7.1549
G1 X116.530 Y105.476 E7.2161
G1 X116.363 Y105.506 E7.2268
G1 X115.364 Y105.637 E7.2896
G1 X115.177 Y105.653 E7.3013
G1 X114.013 Y105.694 E7.3739
G1 X113.860 Y105.693 E7.3834
G1 X113.236 Y105.666 E7.4224
G1 X113.134 Y105.659 E7.4288
G1 X112.520 Y105.599 E7.4672
G1 X112.385 Y105.582 E7.4757
G1 X111.433 Y105.422 E7.5359
G1 X111.300 Y105.395 E7.5444
G1 X110.701 Y105.251 E7.5828
G1 X110.602 Y105.225 E7.5892
G1 X110.011 Y105.050 E7.6276
G1 X109.882 Y105.007 E7.6361
G1 X108.978 Y104.669 E7.6963
G1 X108.852 Y104.617 E7.7048
G1 X108.291 Y104.361 E7.7432
G1 X108.199 Y104.316 E7.7496
G1 X107.653 Y104.032 E7.7881
G1 X107.534 Y103.965 E7.7966
G1 X106.711 Y103.460 E7.8567
G1 X106.598 Y103.385 E7.8652
G1 X106.075 Y103.012 E7.9053
G1 X105.954 Y102.919 E7.9148
G1 X105.075 Y102.181 E7.9864
G1 X104.962 Y102.078 E7.9959
G1 X104.504 Y101.629 E8.0359
G1 X104.411 Y101.530 E8.0444
G1 X103.754 Y100.788 E8.1061
G1 X103.637 Y100.642 E8.1178
G1 X102.942 Y99.686 E8.1915
G1 X102.840 Y99.530 E8.2032
G1 X102.324 Y98.655 E8.2665
G1 X102.237 Y98.489 E8.2782
G1 X101.737 Y97.418 E8.3519
G1 X101.667 Y97.245 E8.3636
G1 X101.327 Y96.287 E8.4269
G1 X101.273 Y96.108 E8.4386
G1 X100.985 Y94.953 E8.5128
G1 X100.946 Y94.753 E8.5256
G1 X100.779 Y93.566 E8.6003
G1 X100.762 Y93.362 E8.6131
G1 X100.721 Y92.190 E8.6862
G1 X100.721 Y92.037 E8.6958
G1 X100.748 Y91.412 E8.7348
G1 X100.756 Y91.310 E8.7411
G1 X100.815 Y90.697 E8.7796
G1 X100.832 Y90.562 E8.7881
G1 X100.991 Y89.610 E8.8482
G1 X101.019 Y89.477 E8.8567
G1 X101.162 Y88.877 E8.8952
G1 X101.189 Y88.778 E8.9015
G1 X101.364 Y88.187 E8.9400
G1 X101.407 Y88.058 E8.9485
G1 X101.745 Y87.154 E9.0087
G1 X101.797 Y87.029 E9.0171
G1 X102.053 Y86.468 E9.0556
G1 X102.097 Y86.376 E9.0620
G1 X102.382 Y85.829 E9.1004
G1 X102.449 Y85.710 E9.1089
G1 X102.953 Y84.888 E9.1691
G1 X103.028 Y84.774 E9.1776
G1 X103.386 Y84.272 E9.2160
G1 X103.448 Y84.191 E9.2224
G1 X103.837 Y83.701 E9.2613
G1 X103.937 Y83.585 E9.2709
G1 X104.299 Y84.084 F4800
G92 E0
G1 X104.384 Y83.986 E0.0081 F500
G1 X105.161 Y83.153 E0.0791
G1 X105.274 Y83.042 E0.0890
G1 X106.014 Y82.388 E0.1506
G1 X106.137 Y82.289 E0.1605
G1 X107.070 Y81.611 E0.2324
G1 X107.202 Y81.524 E0.2422
G1 X108.053 Y81.023 E0.3038
G1 X108.193 Y80.949 E0.3137
G1 X109.238 Y80.462 E0.3856
G1 X109.384 Y80.402 E0.3955
G1 X110.315 Y80.073 E0.4570
G1 X110.467 Y80.027 E0.4669
G1 X111.592 Y79.746 E0.5392
G1 X111.762 Y79.713 E0.5500
G1 X112.918 Y79.551 E0.6228
G1 X113.090 Y79.536 E0.6336
G1 X114.249 Y79.495 E0.7059
G1 X114.408 Y79.498 E0.7158
G1 X115.393 Y79.558 E0.7774
G1 X115.550 Y79.575 E0.7873
G1 X116.689 Y79.755 E0.8591
G1 X116.844 Y79.788 E0.8690
G1 X117.800 Y80.035 E0.9306
G1 X117.951 Y80.082 E0.9405
G1 X119.041 Y80.479 E1.0128
G1 X119.200 Y80.546 E1.0236
G1 X120.243 Y81.055 E1.0959
G1 X120.382 Y81.131 E1.1058
G1 X121.224 Y81.647 E1.1674
G1 X121.354 Y81.736 E1.1772
G1 X122.281 Y82.434 E1.2496
G1 X122.413 Y82.545 E1.2604
G1 X123.261 Y83.335 E1.3326
G1 X123.371 Y83.449 E1.3425
G1 X124.026 Y84.188 E1.4041
G1 X124.125 Y84.312 E1.4140
G1 X124.802 Y85.244 E1.4859
G1 X124.889 Y85.377 E1.4957
G1 X125.390 Y86.227 E1.5573
G1 X125.464 Y86.367 E1.5672
G1 X125.945 Y87.399 E1.6382
G1 X125.996 Y87.519 E1.6462
G1 X126.208 Y88.086 E1.6840
G1 X126.236 Y88.167 E1.6894
G1 X126.416 Y88.738 E1.7267
G1 X126.446 Y88.849 E1.7339
G1 X126.616 Y89.555 E1.7792
G1 X126.859 Y88.615 E1.8397
G1 X126.906 Y88.464 E1.8496
G1 X127.295 Y87.394 E1.9206
G1 X127.344 Y87.274 E1.9287
G1 X127.595 Y86.723 E1.9664
G1 X127.633 Y86.646 E1.9718
G1 X127.909 Y86.115 E2.0091
G1 X127.966 Y86.015 E2.0163
G1 X128.459 Y85.210 E2.0752
G1 X128.523 Y85.114 E2.0824
G1 X128.870 Y84.627 E2.1197
G1 X128.922 Y84.558 E2.1251
G1 X129.299 Y84.084 E2.1628
G1 X129.384 Y83.986 E2.1709
G1 X130.161 Y83.153 E2.2420
G1 X130.274 Y83.042 E2.2518
G1 X131.013 Y82.388 E2.3134
G1 X131.137 Y82.289 E2.3233
G1 X132.070 Y81.611 E2.3952
G1 X132.202 Y81.524 E2.4051
G1 X133.053 Y81.023 E2.4666
G1 X133.193 Y80.949 E2.4765
G1 X134.238 Y80.462 E2.5484
G1 X134.384 Y80.402 E2.5583
G1 X135.315 Y80.073 E2.6198
G1 X135.467 Y80.027 E2.6297
G1 X136.592 Y79.746 E2.7021
G1 X136.762 Y79.713 E2.7128
G1 X137.918 Y79.551 E2.7856
G1 X138.090 Y79.536 E2.7964
G1 X139.249 Y79.495 E2.8687
G1 X139.408 Y79.498 E2.8786
G1 X140.393 Y79.558 E2.9402
G1 X140.550 Y79.575 E2.9501
G1 X141.689 Y79.755 E3.0220
G1 X141.844 Y79.788 E3.0318
G1 X142.800 Y80.035 E3.0934
G1 X142.951 Y80.082 E3.1033
G1 X144.034 Y80.476 E3.1752
G1 X144.181 Y80.537 E3.1851
G1 X145.072 Y80.962 E3.2466
G1 X145.211 Y81.037 E3.2565
G1 X146.205 Y81.635 E3.3288
G1 X146.349 Y81.731 E3.3396
G1 X147.281 Y82.434 E3.4124
G1 X147.413 Y82.545 E3.4232
G1 X148.261 Y83.335 E3.4955
G1 X148.371 Y83.449 E3.5053
G1 X149.026 Y84.188 E3.5669
G1 X149.125 Y84.312 E3.5768
G1 X149.802 Y85.244 E3.6487
G1 X149.889 Y85.377 E3.6585
G1 X150.390 Y86.227 E3.7201
G1 X150.464 Y86.367 E3.7300
G1 X150.945 Y87.399 E3.8010
G1 X150.996 Y87.519 E3.8091
G1 X151.208 Y88.086 E3.8468
G1 X151.236 Y88.167 E3.8522
G1 X151.416 Y88.738 E3.8895
G1 X151.446 Y88.849 E3.8967
