; G-Code generated by Simplify3D(R) Version 3.1.0
; фев 26, 2019 at 10:45:17 
; Settings Summary
;   processName,Process1
;   applyToModels,rounded-autoclave-3mm
;   profileName,Magnum PP 0.5 (modified)
;   profileVersion,2019-02-25 14:20:36
;   baseProfile,Default
;   printMaterial,ABS
;   printQuality,Medium
;   printExtruders,
;   extruderName,Primary Extruder
;   extruderToolheadNumber,0
;   extruderDiameter,0.5
;   extruderAutoWidth,1
;   extruderWidth,0.6
;   extrusionMultiplier,1
;   extruderUseRetract,1
;   extruderRetractionDistance,1.2
;   extruderExtraRestartDistance,0
;   extruderRetractionZLift,0.2
;   extruderRetractionSpeed,1800
;   extruderUseCoasting,0
;   extruderCoastingDistance,0.2
;   extruderUseWipe,0
;   extruderWipeDistance,1
;   primaryExtruder,0
;   layerHeight,0.2
;   topSolidLayers,5
;   bottomSolidLayers,5
;   perimeterOutlines,6
;   printPerimetersInsideOut,1
;   startPointOption,1
;   startPointOriginX,0
;   startPointOriginY,0
;   startPointOriginZ,300
;   sequentialIslands,0
;   spiralVaseMode,0
;   firstLayerHeightPercentage,90
;   firstLayerWidthPercentage,100
;   firstLayerUnderspeed,0.5
;   useRaft,0
;   raftExtruder,0
;   raftLayers,2
;   raftOffset,1
;   raftSeparationDistance,0
;   raftInfill,80
;   disableRaftBaseLayers,0
;   useSkirt,1
;   skirtExtruder,0
;   skirtLayers,1
;   skirtOutlines,7
;   skirtOffset,0
;   usePrimePillar,0
;   primePillarExtruder,999
;   primePillarWidth,12
;   primePillarLocation,7
;   primePillarSpeedMultiplier,1
;   useOozeShield,0
;   oozeShieldExtruder,999
;   oozeShieldOffset,2
;   oozeShieldOutlines,1
;   oozeShieldSidewallShape,1
;   oozeShieldSidewallAngle,30
;   oozeShieldSpeedMultiplier,1
;   infillExtruder,0
;   internalInfillPattern,Wiggle
;   externalInfillPattern,Concentric
;   infillPercentage,100
;   outlineOverlapPercentage,50
;   infillExtrusionWidthPercentage,100
;   minInfillLength,5
;   infillLayerInterval,1
;   infillAngles,0
;   overlapInfillAngles,0
;   generateSupport,0
;   supportExtruder,0
;   supportInfillPercentage,30
;   supportExtraInflation,0
;   denseSupportLayers,0
;   denseSupportInfillPercentage,70
;   supportLayerInterval,1
;   supportHorizontalPartOffset,0.3
;   supportUpperSeparationLayers,1
;   supportLowerSeparationLayers,1
;   supportType,0
;   supportGridSpacing,4
;   maxOverhangAngle,45
;   supportAngles,0
;   temperatureName,Extruder,Bed
;   temperatureNumber,0,0
;   temperatureSetpointCount,1,1
;   temperatureSetpointLayers,1,1
;   temperatureSetpointTemperatures,240,25
;   temperatureStabilizeAtStartup,1,1
;   temperatureHeatedBed,0,1
;   temperatureRelayBetweenLayers,0,0
;   temperatureRelayBetweenLoops,0,0
;   fanLayers,1
;   fanSpeeds,0
;   blipFanToFullPower,0
;   adjustSpeedForCooling,1
;   minSpeedLayerTime,15
;   minCoolingSpeedSlowdown,20
;   increaseFanForCooling,0
;   minFanLayerTime,45
;   maxCoolingFanSpeed,100
;   increaseFanForBridging,0
;   bridgingFanSpeed,100
;   use5D,1
;   relativeEdistances,0
;   allowEaxisZeroing,1
;   independentExtruderAxes,0
;   includeM10123,0
;   stickySupport,1
;   applyToolheadOffsets,0
;   gcodeXoffset,0
;   gcodeYoffset,0
;   gcodeZoffset,0.05
;   overrideMachineDefinition,1
;   machineTypeOverride,0
;   strokeXoverride,260
;   strokeYoverride,190
;   strokeZoverride,180
;   originOffsetXoverride,0
;   originOffsetYoverride,0
;   originOffsetZoverride,0
;   homeXdirOverride,-1
;   homeYdirOverride,-1
;   homeZdirOverride,-1
;   flipXoverride,1
;   flipYoverride,-1
;   flipZoverride,1
;   toolheadOffsets,0,0|0,0|0,0|0,0|0,0|0,0
;   overrideFirmwareConfiguration,0
;   firmwareTypeOverride,RepRap (Marlin/Repetier/Sprinter)
;   GPXconfigOverride,r2
;   baudRateOverride,115200
;   overridePrinterModels,0
;   printerModelsOverride
;   startingGcode,G28 ; home all axes
;   layerChangeGcode,
;   retractionGcode,
;   toolChangeGcode,
;   endingGcode,G91,G1 Z20,,M104 S0 ; turn off extruder,M140 S0 ; turn off bed,M84 ; disable motors
;   exportFileFormat,gcode
;   celebration,0
;   celebrationSong,Random Song
;   postProcessing,
;   defaultSpeed,750
;   outlineUnderspeed,0.5
;   solidInfillUnderspeed,0.8
;   supportUnderspeed,0.8
;   rapidXYspeed,4800
;   rapidZspeed,1000
;   minBridgingArea,50
;   bridgingExtraInflation,1
;   bridgingExtrusionMultiplier,1
;   bridgingSpeedMultiplier,0.8
;   filamentDiameter,1.75
;   filamentPricePerKg,600
;   filamentDensity,1.25
;   useMinPrintHeight,0
;   minPrintHeight,105
;   useMaxPrintHeight,0
;   maxPrintHeight,16
;   useDiaphragm,0
;   diaphragmLayerInterval,20
;   robustSlicing,1
;   mergeAllIntoSolid,0
;   onlyRetractWhenCrossingOutline,1
;   retractBetweenLayers,1
;   useRetractionMinTravel,0
;   retractionMinTravel,3
;   retractWhileWiping,0
;   onlyWipeOutlines,1
;   avoidCrossingOutline,1
;   maxMovementDetourFactor,3
;   toolChangeRetractionDistance,12
;   toolChangeExtraRestartDistance,-0.5
;   toolChangeRetractionSpeed,600
;   allowThinWallGapFill,1
;   thinWallAllowedOverlapPercentage,20
;   horizontalSizeCompensation,0
G90
M82
M106 S0
M140 S25
M190 S25
M104 S240 T0
M109 S240 T0
G28 ; home all axes
G92 E0
G1 E-1.2000 F1800
G1 Z0.430 F1000
; layer 1, Z = 0.18
T0
; tool H0.200 W0.600
; skirt
G1 X118.458 Y86.388 F4800
G1 Z0.230 F1000
G1 E0.0000 F540
G92 E0
G1 X118.582 Y86.226 E0.0102 F375
G1 X119.547 Y85.096 E0.0843
G1 X119.688 Y84.948 E0.0945
G1 X120.495 Y84.182 E0.1500
G1 X120.637 Y84.059 E0.1594
G1 X121.658 Y83.262 E0.2240
G1 X121.825 Y83.145 E0.2342
G1 X122.923 Y82.459 E0.2988
G1 X123.086 Y82.368 E0.3081
G1 X124.074 Y81.875 E0.3632
G1 X124.245 Y81.800 E0.3725
G1 X125.446 Y81.339 E0.4367
G1 X125.624 Y81.280 E0.4460
G1 X126.679 Y80.988 E0.5006
G1 X126.845 Y80.950 E0.5091
G1 X127.896 Y80.755 E0.5625
G1 X128.031 Y80.735 E0.5693
G1 X128.721 Y80.656 E0.6039
G1 X128.873 Y80.645 E0.6115
G1 X130.125 Y80.601 E0.6740
G1 X130.278 Y80.602 E0.6817
G1 X130.980 Y80.633 E0.7167
G1 X131.133 Y80.645 E0.7244
G1 X132.392 Y80.800 E0.7877
G1 X132.577 Y80.832 E0.7970
G1 X133.654 Y81.071 E0.8521
G1 X133.835 Y81.120 E0.8614
G1 X135.066 Y81.520 E0.9260
G1 X135.257 Y81.593 E0.9362
G1 X136.440 Y82.120 E1.0008
G1 X136.607 Y82.204 E1.0101
G1 X137.567 Y82.748 E1.0652
G1 X137.725 Y82.848 E1.0745
G1 X138.779 Y83.586 E1.1387
G1 X138.927 Y83.700 E1.1480
G1 X139.766 Y84.417 E1.2031
G1 X139.902 Y84.545 E1.2124
G1 X140.795 Y85.470 E1.2765
G1 X140.918 Y85.610 E1.2859
G1 X141.605 Y86.474 E1.3409
G1 X141.715 Y86.626 E1.3502
G1 X142.415 Y87.704 E1.4144
G1 X142.509 Y87.866 E1.4238
G1 X143.019 Y88.845 E1.4788
G1 X143.097 Y89.015 E1.4881
G1 X143.582 Y90.215 E1.5527
G1 X143.649 Y90.408 E1.5629
G1 X144.006 Y91.653 E1.6275
G1 X144.049 Y91.835 E1.6369
G1 X144.250 Y92.920 E1.6919
G1 X144.275 Y93.105 E1.7012
G1 X144.388 Y94.395 E1.7658
G1 X144.395 Y94.600 E1.7760
G1 X144.372 Y95.903 E1.8411
G1 X144.358 Y96.106 E1.8512
G1 X144.200 Y97.391 E1.9158
G1 X144.168 Y97.576 E1.9252
G1 X143.929 Y98.653 E1.9802
G1 X143.880 Y98.834 E1.9896
G1 X143.483 Y100.057 E2.0537
G1 X143.416 Y100.232 E2.0631
G1 X142.977 Y101.244 E2.1181
G1 X142.894 Y101.412 E2.1275
G1 X142.270 Y102.537 E2.1916
G1 X142.172 Y102.696 E2.2010
G1 X141.547 Y103.605 E2.2560
G1 X141.433 Y103.754 E2.2654
G1 X140.618 Y104.727 E2.3287
G1 X140.514 Y104.840 E2.3363
G1 X140.039 Y105.324 E2.3702
G1 X139.966 Y105.395 E2.3753
G1 X139.466 Y105.852 E2.4090
G1 X139.349 Y105.951 E2.4167
G1 X138.342 Y106.738 E2.4804
G1 X138.175 Y106.855 E2.4906
G1 X137.077 Y107.541 E2.5552
G1 X136.914 Y107.632 E2.5646
G1 X135.934 Y108.121 E2.6192
G1 X135.778 Y108.190 E2.6277
G1 X134.760 Y108.591 E2.6823
G1 X134.582 Y108.651 E2.6916
G1 X133.346 Y109.006 E2.7558
G1 X133.164 Y109.049 E2.7651
G1 X132.104 Y109.245 E2.8189
G1 X131.969 Y109.265 E2.8257
G1 X131.279 Y109.344 E2.8604
G1 X131.127 Y109.355 E2.8680
G1 X129.875 Y109.399 E2.9305
G1 X129.722 Y109.398 E2.9381
G1 X129.020 Y109.367 E2.9732
G1 X128.867 Y109.355 E2.9808
G1 X127.608 Y109.200 E3.0441
G1 X127.423 Y109.168 E3.0535
G1 X126.371 Y108.935 E3.1072
G1 X126.239 Y108.901 E3.1140
G1 X125.573 Y108.703 E3.1487
G1 X125.428 Y108.654 E3.1563
G1 X124.259 Y108.205 E3.2188
G1 X124.118 Y108.145 E3.2264
G1 X123.492 Y107.846 E3.2611
G1 X123.371 Y107.783 E3.2679
G1 X122.455 Y107.265 E3.3204
G1 X122.339 Y107.194 E3.3272
G1 X121.781 Y106.824 E3.3605
G1 X121.698 Y106.766 E3.3656
G1 X121.160 Y106.368 E3.3990
G1 X121.054 Y106.283 E3.4058
G1 X120.254 Y105.600 E3.4583
G1 X120.153 Y105.508 E3.4651
G1 X119.659 Y105.022 E3.4997
G1 X119.554 Y104.910 E3.5073
G1 X118.732 Y103.965 E3.5698
G1 X118.636 Y103.846 E3.5774
G1 X118.223 Y103.288 E3.6121
G1 X118.146 Y103.175 E3.6188
G1 X117.567 Y102.267 E3.6726
G1 X117.474 Y102.104 E3.6820
G1 X116.890 Y100.958 E3.7461
G1 X116.813 Y100.787 E3.7555
G1 X116.409 Y99.761 E3.8105
G1 X116.349 Y99.583 E3.8198
G1 X115.994 Y98.347 E3.8840
G1 X115.951 Y98.165 E3.8934
G1 X115.750 Y97.080 E3.9484
G1 X115.725 Y96.894 E3.9577
G1 X115.615 Y95.630 E4.0211
G1 X115.607 Y95.477 E4.0287
G1 X115.601 Y94.800 E4.0625
G1 X115.603 Y94.698 E4.0676
G1 X115.633 Y94.021 E4.1014
G1 X115.645 Y93.868 E4.1090
G1 X115.800 Y92.609 E4.1724
G1 X115.832 Y92.424 E4.1817
G1 X116.071 Y91.347 E4.2367
G1 X116.120 Y91.166 E4.2461
G1 X116.517 Y89.943 E4.3102
G1 X116.584 Y89.768 E4.3196
G1 X117.023 Y88.756 E4.3746
G1 X117.106 Y88.588 E4.3840
G1 X117.730 Y87.463 E4.4481
G1 X117.828 Y87.304 E4.4575
G1 X118.458 Y86.388 E4.5129
G1 X118.944 Y86.741 F4800
G92 E0
G1 X119.049 Y86.604 E0.0086 F375
G1 X119.993 Y85.498 E0.0812
G1 X120.112 Y85.372 E0.0898
G1 X120.898 Y84.627 E0.1438
G1 X121.018 Y84.523 E0.1517
G1 X122.015 Y83.745 E0.2148
G1 X122.156 Y83.646 E0.2235
G1 X123.229 Y82.975 E0.2866
G1 X123.367 Y82.898 E0.2945
G1 X124.329 Y82.419 E0.3481
G1 X124.474 Y82.355 E0.3560
G1 X125.648 Y81.904 E0.4187
G1 X125.798 Y81.855 E0.4266
G1 X126.826 Y81.570 E0.4798
G1 X126.967 Y81.537 E0.4870
G1 X127.995 Y81.347 E0.5392
G1 X128.109 Y81.330 E0.5450
G1 X128.777 Y81.254 E0.5785
G1 X128.906 Y81.244 E0.5849
G1 X130.134 Y81.201 E0.6462
G1 X130.263 Y81.202 E0.6527
G1 X130.942 Y81.232 E0.6866
G1 X131.071 Y81.242 E0.6931
G1 X132.305 Y81.394 E0.7551
G1 X132.461 Y81.421 E0.7630
G1 X133.510 Y81.653 E0.8166
G1 X133.663 Y81.695 E0.8245
G1 X134.866 Y82.086 E0.8876
G1 X135.027 Y82.148 E0.8962
G1 X136.182 Y82.662 E0.9593
G1 X136.324 Y82.734 E0.9672
G1 X137.259 Y83.263 E1.0208
G1 X137.393 Y83.347 E1.0287
G1 X138.423 Y84.069 E1.0915
G1 X138.548 Y84.166 E1.0994
G1 X139.365 Y84.864 E1.1530
G1 X139.480 Y84.972 E1.1609
G1 X140.353 Y85.876 E1.2236
G1 X140.458 Y85.995 E1.2315
G1 X141.127 Y86.836 E1.2851
G1 X141.219 Y86.965 E1.2930
G1 X141.904 Y88.019 E1.3557
G1 X141.984 Y88.156 E1.3636
G1 X142.480 Y89.109 E1.4172
G1 X142.546 Y89.253 E1.4251
G1 X143.020 Y90.425 E1.4882
G1 X143.076 Y90.589 E1.4968
G1 X143.425 Y91.805 E1.5599
G1 X143.461 Y91.959 E1.5678
G1 X143.657 Y93.015 E1.6214
G1 X143.678 Y93.172 E1.6293
G1 X143.789 Y94.432 E1.6924
G1 X143.795 Y94.605 E1.7010
G1 X143.772 Y95.876 E1.7645
G1 X143.760 Y96.049 E1.7731
G1 X143.606 Y97.304 E1.8362
G1 X143.579 Y97.460 E1.8441
G1 X143.347 Y98.509 E1.8977
G1 X143.305 Y98.662 E1.9056
G1 X142.917 Y99.858 E1.9684
G1 X142.860 Y100.006 E1.9763
G1 X142.432 Y100.991 E2.0299
G1 X142.362 Y101.134 E2.0378
G1 X141.752 Y102.233 E2.1005
G1 X141.669 Y102.368 E2.1084
G1 X141.060 Y103.253 E2.1620
G1 X140.965 Y103.380 E2.1699
G1 X140.165 Y104.332 E2.2319
G1 X140.078 Y104.428 E2.2384
G1 X139.617 Y104.897 E2.2713
G1 X139.555 Y104.958 E2.2756
G1 X139.070 Y105.402 E2.3084
G1 X138.971 Y105.486 E2.3149
G1 X137.985 Y106.255 E2.3772
G1 X137.844 Y106.354 E2.3859
G1 X136.771 Y107.025 E2.4490
G1 X136.633 Y107.102 E2.4569
G1 X135.678 Y107.578 E2.5101
G1 X135.546 Y107.637 E2.5173
G1 X134.553 Y108.028 E2.5705
G1 X134.403 Y108.079 E2.5784
G1 X133.194 Y108.425 E2.6412
G1 X133.040 Y108.461 E2.6491
G1 X132.005 Y108.653 E2.7016
G1 X131.891 Y108.670 E2.7074
G1 X131.223 Y108.746 E2.7409
G1 X131.094 Y108.756 E2.7473
G1 X129.866 Y108.799 E2.8086
G1 X129.736 Y108.798 E2.8151
G1 X129.058 Y108.768 E2.8490
G1 X128.929 Y108.758 E2.8555
G1 X127.695 Y108.606 E2.9175
G1 X127.539 Y108.579 E2.9254
G1 X126.511 Y108.351 E2.9779
G1 X126.399 Y108.322 E2.9837
G1 X125.755 Y108.132 E3.0172
G1 X125.632 Y108.090 E3.0237
G1 X124.485 Y107.649 E3.0850
G1 X124.366 Y107.598 E3.0914
G1 X123.760 Y107.309 E3.1250
G1 X123.657 Y107.256 E3.1307
G1 X122.760 Y106.748 E3.1821
G1 X122.662 Y106.688 E3.1879
G1 X122.119 Y106.329 E3.2203
G1 X122.048 Y106.279 E3.2247
G1 X121.526 Y105.892 E3.2571
G1 X121.435 Y105.820 E3.2629
G1 X120.651 Y105.150 E3.3143
G1 X120.566 Y105.073 E3.3200
G1 X120.088 Y104.602 E3.3535
G1 X119.999 Y104.508 E3.3600
G1 X119.193 Y103.581 E3.4213
G1 X119.112 Y103.479 E3.4278
G1 X118.712 Y102.939 E3.4613
G1 X118.647 Y102.844 E3.4670
G1 X118.081 Y101.956 E3.5196
G1 X118.002 Y101.819 E3.5275
G1 X117.431 Y100.698 E3.5902
G1 X117.366 Y100.554 E3.5981
G1 X116.973 Y99.554 E3.6517
G1 X116.922 Y99.404 E3.6596
G1 X116.575 Y98.195 E3.7224
G1 X116.539 Y98.041 E3.7303
G1 X116.343 Y96.985 E3.7839
G1 X116.322 Y96.828 E3.7918
G1 X116.213 Y95.590 E3.8538
G1 X116.207 Y95.460 E3.8603
G1 X116.201 Y94.802 E3.8931
G1 X116.203 Y94.716 E3.8974
G1 X116.232 Y94.059 E3.9302
G1 X116.242 Y93.930 E3.9367
G1 X116.394 Y92.696 E3.9987
G1 X116.421 Y92.540 E4.0066
G1 X116.653 Y91.491 E4.0602
G1 X116.695 Y91.338 E4.0681
G1 X117.083 Y90.142 E4.1308
G1 X117.140 Y89.994 E4.1387
G1 X117.568 Y89.009 E4.1923
G1 X117.638 Y88.867 E4.2002
G1 X118.248 Y87.767 E4.2630
G1 X118.331 Y87.632 E4.2709
G1 X118.944 Y86.741 E4.3248
G1 X119.429 Y87.093 F4800
G92 E0
G1 X119.515 Y86.981 E0.0071 F375
G1 X120.439 Y85.899 E0.0780
G1 X120.537 Y85.797 E0.0851
G1 X121.300 Y85.072 E0.1376
G1 X121.399 Y84.987 E0.1441
G1 X122.372 Y84.227 E0.2057
G1 X122.487 Y84.146 E0.2127
G1 X123.534 Y83.492 E0.2743
G1 X123.648 Y83.429 E0.2808
G1 X124.583 Y82.962 E0.3330
G1 X124.702 Y82.910 E0.3394
G1 X125.849 Y82.470 E0.4007
G1 X125.972 Y82.429 E0.4072
G1 X126.974 Y82.151 E0.4591
G1 X127.089 Y82.125 E0.4650
G1 X128.094 Y81.939 E0.5159
G1 X128.187 Y81.925 E0.5207
G1 X128.833 Y81.851 E0.5531
G1 X128.939 Y81.843 E0.5584
G1 X130.143 Y81.801 E0.6185
G1 X130.249 Y81.802 E0.6238
G1 X130.904 Y81.831 E0.6565
G1 X131.010 Y81.839 E0.6618
G1 X132.218 Y81.988 E0.7225
G1 X132.345 Y82.010 E0.7290
G1 X133.366 Y82.236 E0.7811
G1 X133.491 Y82.270 E0.7876
G1 X134.665 Y82.652 E0.8492
G1 X134.797 Y82.702 E0.8562
G1 X135.925 Y83.205 E0.9178
G1 X136.041 Y83.263 E0.9243
G1 X136.951 Y83.778 E0.9765
G1 X137.061 Y83.847 E0.9829
G1 X138.067 Y84.552 E1.0442
G1 X138.169 Y84.631 E1.0507
G1 X138.964 Y85.310 E1.1029
G1 X139.059 Y85.399 E1.1093
G1 X139.912 Y86.282 E1.1706
G1 X139.997 Y86.380 E1.1770
G1 X140.648 Y87.198 E1.2292
G1 X140.724 Y87.303 E1.2357
G1 X141.393 Y88.334 E1.2970
G1 X141.458 Y88.446 E1.3034
G1 X141.941 Y89.373 E1.3556
G1 X141.995 Y89.491 E1.3621
G1 X142.458 Y90.636 E1.4237
G1 X142.504 Y90.769 E1.4307
G1 X142.844 Y91.956 E1.4923
G1 X142.874 Y92.082 E1.4988
G1 X143.064 Y93.110 E1.5510
G1 X143.082 Y93.239 E1.5574
G1 X143.189 Y94.469 E1.6190
G1 X143.194 Y94.610 E1.6261
G1 X143.173 Y95.850 E1.6879
G1 X143.163 Y95.991 E1.6950
G1 X143.012 Y97.217 E1.7566
G1 X142.990 Y97.344 E1.7631
G1 X142.764 Y98.365 E1.8152
G1 X142.730 Y98.490 E1.8217
G1 X142.350 Y99.659 E1.8830
G1 X142.305 Y99.780 E1.8895
G1 X141.888 Y100.739 E1.9416
G1 X141.830 Y100.855 E1.9481
G1 X141.235 Y101.930 E2.0094
G1 X141.166 Y102.040 E2.0159
G1 X140.574 Y102.902 E2.0680
G1 X140.496 Y103.005 E2.0745
G1 X139.713 Y103.937 E2.1352
G1 X139.642 Y104.016 E2.1405
G1 X139.194 Y104.471 E2.1724
G1 X139.143 Y104.520 E2.1759
G1 X138.673 Y104.952 E2.2077
G1 X138.592 Y105.020 E2.2130
G1 X137.628 Y105.773 E2.2740
G1 X137.512 Y105.854 E2.2811
G1 X136.465 Y106.508 E2.3427
G1 X136.352 Y106.571 E2.3491
G1 X135.422 Y107.035 E2.4010
G1 X135.314 Y107.083 E2.4069
G1 X134.347 Y107.464 E2.4588
G1 X134.224 Y107.506 E2.4652
G1 X133.043 Y107.844 E2.5265
G1 X132.917 Y107.874 E2.5330
G1 X131.906 Y108.061 E2.5843
G1 X131.813 Y108.075 E2.5890
G1 X131.167 Y108.149 E2.6214
G1 X131.061 Y108.157 E2.6267
G1 X129.857 Y108.199 E2.6868
G1 X129.751 Y108.198 E2.6921
G1 X129.096 Y108.169 E2.7248
G1 X128.990 Y108.161 E2.7301
