; G-Code generated by Simplify3D(R) Version 3.1.0
; θών 10, 2019 at 11:35:05 
; Settings Summary
;   processName,Process1
;   applyToModels,single-0.25mL(3)
;   profileName,Magnum PP-white 0.5
;   profileVersion,2019-04-24 10:48:12
;   baseProfile,Default
;   printMaterial,ABS
;   printQuality,Medium
;   printExtruders,
;   extruderName,Primary Extruder
;   extruderToolheadNumber,0
;   extruderDiameter,0.5
;   extruderAutoWidth,1
;   extruderWidth,0.6
;   extrusionMultiplier,1.22
;   extruderUseRetract,1
;   extruderRetractionDistance,1.2
;   extruderExtraRestartDistance,0
;   extruderRetractionZLift,0.2
;   extruderRetractionSpeed,1800
;   extruderUseCoasting,0
;   extruderCoastingDistance,0.2
;   extruderUseWipe,0
;   extruderWipeDistance,1
;   primaryExtruder,0
;   layerHeight,0.15
;   topSolidLayers,8
;   bottomSolidLayers,8
;   perimeterOutlines,8
;   printPerimetersInsideOut,1
;   startPointOption,1
;   startPointOriginX,0
;   startPointOriginY,0
;   startPointOriginZ,300
;   sequentialIslands,0
;   spiralVaseMode,0
;   firstLayerHeightPercentage,90
;   firstLayerWidthPercentage,100
;   firstLayerUnderspeed,0.5
;   useRaft,0
;   raftExtruder,0
;   raftLayers,2
;   raftOffset,1
;   raftSeparationDistance,0
;   raftInfill,80
;   disableRaftBaseLayers,0
;   useSkirt,1
;   skirtExtruder,0
;   skirtLayers,1
;   skirtOutlines,2
;   skirtOffset,0
;   usePrimePillar,0
;   primePillarExtruder,999
;   primePillarWidth,12
;   primePillarLocation,7
;   primePillarSpeedMultiplier,1
;   useOozeShield,0
;   oozeShieldExtruder,999
;   oozeShieldOffset,2
;   oozeShieldOutlines,1
;   oozeShieldSidewallShape,1
;   oozeShieldSidewallAngle,30
;   oozeShieldSpeedMultiplier,1
;   infillExtruder,0
;   internalInfillPattern,Wiggle
;   externalInfillPattern,Concentric
;   infillPercentage,100
;   outlineOverlapPercentage,50
;   infillExtrusionWidthPercentage,100
;   minInfillLength,5
;   infillLayerInterval,1
;   infillAngles,0
;   overlapInfillAngles,0
;   generateSupport,0
;   supportExtruder,0
;   supportInfillPercentage,30
;   supportExtraInflation,0
;   denseSupportLayers,0
;   denseSupportInfillPercentage,70
;   supportLayerInterval,1
;   supportHorizontalPartOffset,0.3
;   supportUpperSeparationLayers,1
;   supportLowerSeparationLayers,1
;   supportType,0
;   supportGridSpacing,4
;   maxOverhangAngle,45
;   supportAngles,0
;   temperatureName,Extruder,Bed
;   temperatureNumber,0,0
;   temperatureSetpointCount,1,1
;   temperatureSetpointLayers,1,1
;   temperatureSetpointTemperatures,248,25
;   temperatureStabilizeAtStartup,1,1
;   temperatureHeatedBed,0,1
;   temperatureRelayBetweenLayers,0,0
;   temperatureRelayBetweenLoops,0,0
;   fanLayers,1
;   fanSpeeds,0
;   blipFanToFullPower,0
;   adjustSpeedForCooling,1
;   minSpeedLayerTime,15
;   minCoolingSpeedSlowdown,20
;   increaseFanForCooling,0
;   minFanLayerTime,45
;   maxCoolingFanSpeed,100
;   increaseFanForBridging,0
;   bridgingFanSpeed,100
;   use5D,1
;   relativeEdistances,0
;   allowEaxisZeroing,1
;   independentExtruderAxes,0
;   includeM10123,0
;   stickySupport,1
;   applyToolheadOffsets,0
;   gcodeXoffset,0
;   gcodeYoffset,0
;   gcodeZoffset,0.05
;   overrideMachineDefinition,1
;   machineTypeOverride,0
;   strokeXoverride,260
;   strokeYoverride,190
;   strokeZoverride,180
;   originOffsetXoverride,0
;   originOffsetYoverride,0
;   originOffsetZoverride,0
;   homeXdirOverride,-1
;   homeYdirOverride,-1
;   homeZdirOverride,-1
;   flipXoverride,1
;   flipYoverride,-1
;   flipZoverride,1
;   toolheadOffsets,0,0|0,0|0,0|0,0|0,0|0,0
;   overrideFirmwareConfiguration,0
;   firmwareTypeOverride,RepRap (Marlin/Repetier/Sprinter)
;   GPXconfigOverride,r2
;   baudRateOverride,115200
;   overridePrinterModels,0
;   printerModelsOverride
;   startingGcode,G28 ; home all axes,
;   layerChangeGcode,
;   retractionGcode,
;   toolChangeGcode,
;   endingGcode,G91,G1 Z20,,M104 S0 ; turn off extruder,M140 S0 ; turn off bed,M84 ; disable motors
;   exportFileFormat,gcode
;   celebration,0
;   celebrationSong,Random Song
;   postProcessing,
;   defaultSpeed,750
;   outlineUnderspeed,0.5
;   solidInfillUnderspeed,0.8
;   supportUnderspeed,0.8
;   rapidXYspeed,4800
;   rapidZspeed,1000
;   minBridgingArea,50
;   bridgingExtraInflation,1
;   bridgingExtrusionMultiplier,1
;   bridgingSpeedMultiplier,0.8
;   filamentDiameter,1.72
;   filamentPricePerKg,600
;   filamentDensity,1.25
;   useMinPrintHeight,0
;   minPrintHeight,105
;   useMaxPrintHeight,0
;   maxPrintHeight,22
;   useDiaphragm,0
;   diaphragmLayerInterval,20
;   robustSlicing,1
;   mergeAllIntoSolid,0
;   onlyRetractWhenCrossingOutline,1
;   retractBetweenLayers,1
;   useRetractionMinTravel,0
;   retractionMinTravel,3
;   retractWhileWiping,0
;   onlyWipeOutlines,1
;   avoidCrossingOutline,1
;   maxMovementDetourFactor,3
;   toolChangeRetractionDistance,12
;   toolChangeExtraRestartDistance,-0.5
;   toolChangeRetractionSpeed,600
;   allowThinWallGapFill,1
;   thinWallAllowedOverlapPercentage,20
;   horizontalSizeCompensation,0
G90
M82
M106 S0
M140 S25
M190 S25
M104 S248 T0
M109 S248 T0
G28 ; home all axes
G92 E0
G1 E-1.2000 F1800
G1 Z0.385 F1000
; layer 1, Z = 0.135
T0
; tool H0.150 W0.600
; skirt
G1 X124.062 Y96.029 F4800
G1 Z0.185 F1000
G1 E0.0000 F540
G92 E0
G1 X124.614 Y95.340 E0.0417 F375
G1 X124.642 Y95.309 E0.0437
G1 X125.259 Y94.672 E0.0856
G1 X125.295 Y94.638 E0.0879
G1 X126.195 Y93.894 E0.1431
G1 X126.235 Y93.864 E0.1455
G1 X126.975 Y93.378 E0.1873
G1 X127.012 Y93.357 E0.1893
G1 X127.791 Y92.944 E0.2310
G1 X127.829 Y92.926 E0.2330
G1 X128.647 Y92.587 E0.2748
G1 X128.694 Y92.571 E0.2772
G1 X129.816 Y92.245 E0.3324
G1 X129.864 Y92.234 E0.3347
G1 X130.737 Y92.082 E0.3766
G1 X130.779 Y92.077 E0.3786
G1 X131.658 Y92.007 E0.4202
G1 X131.700 Y92.006 E0.4222
G1 X132.582 Y92.020 E0.4639
G1 X132.624 Y92.023 E0.4659
G1 X133.501 Y92.120 E0.5076
G1 X133.543 Y92.126 E0.5096
G1 X134.406 Y92.305 E0.5513
G1 X134.447 Y92.316 E0.5533
G1 X135.290 Y92.575 E0.5949
G1 X135.330 Y92.590 E0.5969
G1 X136.145 Y92.927 E0.6386
G1 X136.183 Y92.945 E0.6406
G1 X136.962 Y93.358 E0.6823
G1 X136.999 Y93.379 E0.6843
G1 X137.736 Y93.864 E0.7260
G1 X137.770 Y93.889 E0.7280
G1 X138.461 Y94.442 E0.7698
G1 X138.498 Y94.475 E0.7722
G1 X139.324 Y95.301 E0.8273
G1 X139.357 Y95.338 E0.8297
G1 X139.910 Y96.029 E0.8715
G1 X139.935 Y96.063 E0.8735
G1 X140.419 Y96.800 E0.9152
G1 X140.441 Y96.837 E0.9172
G1 X140.853 Y97.616 E0.9589
G1 X140.871 Y97.654 E0.9609
G1 X141.209 Y98.469 E1.0025
G1 X141.223 Y98.509 E1.0045
G1 X141.484 Y99.355 E1.0464
G1 X141.496 Y99.403 E1.0487
G1 X141.715 Y100.551 E1.1039
G1 X141.721 Y100.600 E1.1063
G1 X141.791 Y101.483 E1.1481
G1 X141.792 Y101.525 E1.1501
G1 X141.778 Y102.407 E1.1918
G1 X141.775 Y102.449 E1.1938
G1 X141.679 Y103.326 E1.2355
G1 X141.672 Y103.368 E1.2375
G1 X141.493 Y104.231 E1.2791
G1 X141.483 Y104.272 E1.2811
G1 X141.223 Y105.115 E1.3228
G1 X141.209 Y105.155 E1.3248
G1 X140.871 Y105.970 E1.3665
G1 X140.853 Y106.008 E1.3685
G1 X140.441 Y106.787 E1.4102
G1 X140.419 Y106.824 E1.4122
G1 X139.935 Y107.561 E1.4538
G1 X139.910 Y107.595 E1.4559
G1 X139.359 Y108.284 E1.4975
G1 X139.331 Y108.315 E1.4995
G1 X138.716 Y108.949 E1.5413
G1 X138.685 Y108.978 E1.5433
G1 X138.015 Y109.551 E1.5849
G1 X137.981 Y109.577 E1.5869
G1 X137.260 Y110.084 E1.6286
G1 X137.224 Y110.107 E1.6306
G1 X136.458 Y110.544 E1.6723
G1 X136.420 Y110.563 E1.6743
G1 X135.616 Y110.926 E1.7160
G1 X135.577 Y110.941 E1.7180
G1 X134.742 Y111.227 E1.7596
G1 X134.702 Y111.239 E1.7616
G1 X133.841 Y111.445 E1.8035
G1 X133.792 Y111.454 E1.8058
G1 X132.633 Y111.600 E1.8610
G1 X132.583 Y111.604 E1.8634
G1 X131.698 Y111.618 E1.9052
G1 X131.656 Y111.616 E1.9072
G1 X130.777 Y111.547 E1.9489
G1 X130.734 Y111.542 E1.9509
G1 X129.866 Y111.390 E1.9926
G1 X129.824 Y111.381 E1.9946
G1 X128.974 Y111.148 E2.0363
G1 X128.933 Y111.135 E2.0383
G1 X128.109 Y110.823 E2.0799
G1 X128.070 Y110.806 E2.0819
G1 X127.278 Y110.418 E2.1236
G1 X127.241 Y110.398 E2.1256
G1 X126.489 Y109.937 E2.1673
G1 X126.454 Y109.913 E2.1693
G1 X125.746 Y109.381 E2.2111
G1 X125.708 Y109.350 E2.2135
G1 X124.857 Y108.550 E2.2686
G1 X124.823 Y108.515 E2.2710
G1 X124.248 Y107.841 E2.3128
G1 X124.222 Y107.808 E2.3148
G1 X123.715 Y107.086 E2.3565
G1 X123.692 Y107.051 E2.3585
G1 X123.255 Y106.284 E2.4002
G1 X123.236 Y106.247 E2.4022
G1 X122.873 Y105.443 E2.4438
G1 X122.857 Y105.404 E2.4458
G1 X122.572 Y104.569 E2.4875
G1 X122.560 Y104.528 E2.4895
G1 X122.353 Y103.668 E2.5314
G1 X122.344 Y103.619 E2.5337
G1 X122.198 Y102.460 E2.5889
G1 X122.194 Y102.410 E2.5913
G1 X122.180 Y101.525 E2.6331
G1 X122.182 Y101.483 E2.6351
G1 X122.251 Y100.600 E2.6769
G1 X122.258 Y100.551 E2.6793
G1 X122.477 Y99.403 E2.7345
G1 X122.489 Y99.355 E2.7368
G1 X122.749 Y98.509 E2.7787
G1 X122.763 Y98.469 E2.7807
G1 X123.101 Y97.654 E2.8223
G1 X123.119 Y97.616 E2.8244
G1 X123.531 Y96.837 E2.8660
G1 X123.553 Y96.800 E2.8680
G1 X124.037 Y96.063 E2.9097
G1 X124.062 Y96.029 E2.9117
G1 X124.539 Y96.393 F4800
G92 E0
G1 X125.073 Y95.727 E0.0403 F375
G1 X125.082 Y95.716 E0.0410
G1 X125.678 Y95.101 E0.0814
G1 X125.690 Y95.090 E0.0822
G1 X126.565 Y94.367 E0.1359
G1 X126.578 Y94.357 E0.1367
G1 X127.293 Y93.888 E0.1771
G1 X127.305 Y93.880 E0.1777
G1 X128.059 Y93.481 E0.2181
G1 X128.072 Y93.475 E0.2187
G1 X128.862 Y93.148 E0.2591
G1 X128.877 Y93.143 E0.2599
G1 X129.968 Y92.826 E0.3136
G1 X129.984 Y92.822 E0.3143
G1 X130.826 Y92.675 E0.3547
G1 X130.840 Y92.674 E0.3554
G1 X131.691 Y92.607 E0.3957
G1 X131.705 Y92.606 E0.3964
G1 X132.558 Y92.620 E0.4367
G1 X132.572 Y92.621 E0.4374
G1 X133.421 Y92.714 E0.4777
G1 X133.435 Y92.717 E0.4784
G1 X134.271 Y92.890 E0.5187
G1 X134.284 Y92.893 E0.5194
G1 X135.100 Y93.144 E0.5597
G1 X135.113 Y93.149 E0.5604
G1 X135.902 Y93.476 E0.6008
G1 X135.915 Y93.482 E0.6014
G1 X136.669 Y93.881 E0.6418
G1 X136.681 Y93.889 E0.6424
G1 X137.395 Y94.357 E0.6828
G1 X137.406 Y94.366 E0.6834
G1 X138.073 Y94.900 E0.7238
G1 X138.085 Y94.911 E0.7246
G1 X138.888 Y95.713 E0.7782
G1 X138.899 Y95.726 E0.7790
G1 X139.433 Y96.393 E0.8194
G1 X139.441 Y96.404 E0.8200
G1 X139.910 Y97.118 E0.8604
G1 X139.917 Y97.130 E0.8611
G1 X140.317 Y97.884 E0.9014
G1 X140.323 Y97.897 E0.9021
G1 X140.649 Y98.686 E0.9424
G1 X140.654 Y98.699 E0.9431
G1 X140.905 Y99.516 E0.9835
G1 X140.909 Y99.532 E0.9842
G1 X141.122 Y100.647 E1.0379
G1 X141.124 Y100.663 E1.0387
G1 X141.191 Y101.516 E1.0791
G1 X141.192 Y101.530 E1.0797
G1 X141.178 Y102.383 E1.1201
G1 X141.177 Y102.397 E1.1207
G1 X141.084 Y103.246 E1.1611
G1 X141.082 Y103.260 E1.1617
G1 X140.909 Y104.096 E1.2021
G1 X140.905 Y104.109 E1.2027
G1 X140.654 Y104.925 E1.2431
G1 X140.649 Y104.938 E1.2437
G1 X140.323 Y105.727 E1.2841
G1 X140.317 Y105.740 E1.2848
G1 X139.917 Y106.494 E1.3251
G1 X139.910 Y106.506 E1.3258
G1 X139.441 Y107.220 E1.3661
G1 X139.433 Y107.231 E1.3668
G1 X138.899 Y107.897 E1.4071
G1 X138.890 Y107.908 E1.4078
G1 X138.295 Y108.522 E1.4482
G1 X138.285 Y108.531 E1.4488
G1 X137.636 Y109.086 E1.4892
G1 X137.625 Y109.094 E1.4898
G1 X136.926 Y109.585 E1.5302
G1 X136.914 Y109.593 E1.5308
G1 X136.173 Y110.015 E1.5712
G1 X136.160 Y110.022 E1.5718
G1 X135.382 Y110.373 E1.6122
G1 X135.369 Y110.378 E1.6128
G1 X134.561 Y110.655 E1.6532
G1 X134.548 Y110.659 E1.6538
G1 X133.717 Y110.858 E1.6942
G1 X133.700 Y110.861 E1.6950
G1 X132.574 Y111.003 E1.7487
G1 X132.558 Y111.004 E1.7494
G1 X131.703 Y111.018 E1.7898
G1 X131.689 Y111.017 E1.7905
G1 X130.838 Y110.950 E1.8308
G1 X130.824 Y110.948 E1.8315
G1 X129.983 Y110.801 E1.8719
G1 X129.969 Y110.798 E1.8725
G1 X129.146 Y110.573 E1.9129
G1 X129.132 Y110.569 E1.9135
G1 X128.334 Y110.267 E1.9539
G1 X128.321 Y110.261 E1.9545
G1 X127.554 Y109.886 E1.9949
G1 X127.542 Y109.879 E1.9955
G1 X126.814 Y109.433 E2.0359
G1 X126.803 Y109.425 E2.0365
G1 X126.119 Y108.912 E2.0769
G1 X126.107 Y108.901 E2.0777
G1 X125.280 Y108.124 E2.1313
G1 X125.268 Y108.112 E2.1321
G1 X124.713 Y107.462 E2.1725
G1 X124.704 Y107.451 E2.1732
G1 X124.214 Y106.753 E2.2135
G1 X124.206 Y106.741 E2.2142
G1 X123.783 Y106.000 E2.2545
G1 X123.777 Y105.987 E2.2552
G1 X123.425 Y105.209 E2.2955
G1 X123.420 Y105.196 E2.2962
G1 X123.144 Y104.388 E2.3365
G1 X123.140 Y104.375 E2.3372
G1 X122.940 Y103.544 E2.3776
G1 X122.937 Y103.527 E2.3783
G1 X122.795 Y102.401 E2.4320
G1 X122.794 Y102.384 E2.4328
G1 X122.780 Y101.530 E2.4732
G1 X122.781 Y101.516 E2.4738
G1 X122.848 Y100.663 E2.5142
G1 X122.850 Y100.647 E2.5150
G1 X123.063 Y99.532 E2.5687
G1 X123.067 Y99.516 E2.5694
G1 X123.318 Y98.699 E2.6098
G1 X123.323 Y98.686 E2.6105
G1 X123.650 Y97.897 E2.6508
G1 X123.656 Y97.884 E2.6515
G1 X124.055 Y97.130 E2.6918
G1 X124.062 Y97.118 E2.6925
G1 X124.531 Y96.404 E2.7329
G1 X124.539 Y96.393 E2.7335
; inner perimeter
G1 X131.847 Y106.215 F4800
G92 E0
G1 X131.434 Y106.182 E0.0196 F352
G1 X131.025 Y106.111 E0.0392
G1 X130.624 Y106.001 E0.0588
G1 X130.236 Y105.854 E0.0785
G1 X129.864 Y105.672 E0.0981
G1 X129.510 Y105.455 E0.1177
G1 X129.150 Y105.185 E0.1390
G1 X128.968 Y105.025 E0.1504
G1 X128.798 Y104.854 E0.1618
G1 X128.506 Y104.512 E0.1830
G1 X128.267 Y104.172 E0.2027
G1 X128.061 Y103.812 E0.2223
G1 X127.890 Y103.434 E0.2419
G1 X127.756 Y103.041 E0.2615
G1 X127.651 Y102.603 E0.2828
G1 X127.613 Y102.364 E0.2942
G1 X127.590 Y102.124 E0.3056
G1 X127.583 Y101.674 E0.3269
G1 X127.619 Y101.225 E0.3482
G1 X127.656 Y100.986 E0.3596
G1 X127.709 Y100.750 E0.3710
G1 X127.842 Y100.320 E0.3923
G1 X128.000 Y99.936 E0.4119
G1 X128.195 Y99.570 E0.4315
G1 X128.422 Y99.223 E0.4511
G1 X128.682 Y98.899 E0.4707
G1 X129.019 Y98.551 E0.4936
G1 X129.397 Y98.248 E0.5165
G1 X129.744 Y98.020 E0.5361
G1 X130.111 Y97.826 E0.5557
G1 X130.527 Y97.654 E0.5770
G1 X130.757 Y97.579 E0.5884
G1 X130.991 Y97.519 E0.5999
G1 X131.435 Y97.442 E0.6211
G1 X131.848 Y97.409 E0.6408
G1 X132.263 Y97.416 E0.6604
G1 X132.676 Y97.461 E0.6800
G1 X133.082 Y97.545 E0.6996
G1 X133.479 Y97.668 E0.7192
G1 X133.862 Y97.826 E0.7388
G1 X134.229 Y98.021 E0.7584
G1 X134.576 Y98.249 E0.7780
G1 X134.927 Y98.530 E0.7993
G1 X135.103 Y98.695 E0.8107
G1 X135.268 Y98.871 E0.8221
G1 X135.550 Y99.223 E0.8434
G1 X135.778 Y99.570 E0.8630
G1 X135.972 Y99.937 E0.8826
G1 X136.131 Y100.320 E0.9022
G1 X136.263 Y100.750 E0.9235
G1 X136.316 Y100.986 E0.9349
G1 X136.354 Y101.225 E0.9464
G1 X136.389 Y101.674 E0.9676
G1 X136.382 Y102.089 E0.9872
G1 X136.337 Y102.501 E1.0069
G1 X136.253 Y102.907 E1.0265
G1 X136.131 Y103.304 E1.0461
G1 X135.972 Y103.687 E1.0657
G1 X135.778 Y104.054 E1.0853
G1 X135.550 Y104.401 E1.1049
G1 X135.290 Y104.725 E1.1245
G1 X135.001 Y105.023 E1.1442
G1 X134.686 Y105.293 E1.1638
G1 X134.346 Y105.531 E1.1834
G1 X133.986 Y105.737 E1.2030
G1 X133.607 Y105.908 E1.2226
G1 X133.214 Y106.042 E1.2422
G1 X132.777 Y106.147 E1.2635
G1 X132.538 Y106.185 E1.2749
G1 X132.298 Y106.208 E1.2863
G1 X131.847 Y106.215 E1.3076
; inner perimeter
G1 X131.828 Y106.815 F4800
G92 E0
G1 X131.358 Y106.778 E0.0223 F328
G1 X130.894 Y106.697 E0.0446
G1 X130.439 Y106.572 E0.0669
G1 X129.998 Y106.406 E0.0891
G1 X129.574 Y106.198 E0.1114
G1 X129.172 Y105.952 E0.1337
G1 X128.770 Y105.650 E0.1575
G1 X128.557 Y105.462 E0.1709
G1 X128.357 Y105.262 E0.1843
G1 X128.031 Y104.880 E0.2080
G1 X127.760 Y104.494 E0.2303
G1 X127.526 Y104.084 E0.2526
G1 X127.332 Y103.655 E0.2749
G1 X127.179 Y103.208 E0.2971
G1 X127.062 Y102.720 E0.3209
G1 X127.018 Y102.440 E0.3343
G1 X126.991 Y102.157 E0.3477
G1 X126.983 Y101.655 E0.3715
G1 X127.022 Y101.154 E0.3952
G1 X127.067 Y100.874 E0.4086
G1 X127.129 Y100.596 E0.4220
G1 X127.276 Y100.116 E0.4458
G1 X127.457 Y99.681 E0.4680
G1 X127.677 Y99.264 E0.4903
G1 X127.936 Y98.870 E0.5126
G1 X128.231 Y98.502 E0.5349
G1 X128.603 Y98.118 E0.5601
G1 X128.628 Y98.096 E0.5617
G1 X129.044 Y97.762 E0.5869
G1 X129.438 Y97.503 E0.6092
G1 X129.855 Y97.282 E0.6315
G1 X130.319 Y97.090 E0.6552
G1 X130.590 Y97.003 E0.6687
G1 X130.865 Y96.932 E0.6821
G1 X131.359 Y96.846 E0.7058
G1 X131.829 Y96.809 E0.7281
G1 X132.301 Y96.816 E0.7504
G1 X132.770 Y96.868 E0.7727
G1 X133.232 Y96.964 E0.7950
G1 X133.682 Y97.102 E0.8173
G1 X134.118 Y97.283 E0.8395
G1 X134.535 Y97.504 E0.8618
G1 X134.929 Y97.763 E0.8841
