; G-Code generated by Simplify3D(R) Version 3.1.0
; апр 11, 2019 at 12:06:34 
; Settings Summary
;   processName,Process1
;   applyToModels,single_all4mm_1mL
;   profileName,Magnum PP-white 0.5 testing
;   profileVersion,2019-04-08 09:30:18
;   baseProfile,Default
;   printMaterial,ABS
;   printQuality,Medium
;   printExtruders,
;   extruderName,Primary Extruder
;   extruderToolheadNumber,0
;   extruderDiameter,0.5
;   extruderAutoWidth,1
;   extruderWidth,0.6
;   extrusionMultiplier,1.2
;   extruderUseRetract,1
;   extruderRetractionDistance,1.2
;   extruderExtraRestartDistance,0
;   extruderRetractionZLift,0.2
;   extruderRetractionSpeed,1800
;   extruderUseCoasting,0
;   extruderCoastingDistance,0.2
;   extruderUseWipe,0
;   extruderWipeDistance,1
;   primaryExtruder,0
;   layerHeight,0.15
;   topSolidLayers,8
;   bottomSolidLayers,8
;   perimeterOutlines,8
;   printPerimetersInsideOut,1
;   startPointOption,1
;   startPointOriginX,0
;   startPointOriginY,0
;   startPointOriginZ,300
;   sequentialIslands,0
;   spiralVaseMode,0
;   firstLayerHeightPercentage,90
;   firstLayerWidthPercentage,100
;   firstLayerUnderspeed,0.5
;   useRaft,0
;   raftExtruder,0
;   raftLayers,2
;   raftOffset,1
;   raftSeparationDistance,0
;   raftInfill,80
;   disableRaftBaseLayers,0
;   useSkirt,1
;   skirtExtruder,0
;   skirtLayers,1
;   skirtOutlines,2
;   skirtOffset,0
;   usePrimePillar,0
;   primePillarExtruder,999
;   primePillarWidth,12
;   primePillarLocation,7
;   primePillarSpeedMultiplier,1
;   useOozeShield,0
;   oozeShieldExtruder,999
;   oozeShieldOffset,2
;   oozeShieldOutlines,1
;   oozeShieldSidewallShape,1
;   oozeShieldSidewallAngle,30
;   oozeShieldSpeedMultiplier,1
;   infillExtruder,0
;   internalInfillPattern,Wiggle
;   externalInfillPattern,Concentric
;   infillPercentage,100
;   outlineOverlapPercentage,50
;   infillExtrusionWidthPercentage,100
;   minInfillLength,5
;   infillLayerInterval,1
;   infillAngles,0
;   overlapInfillAngles,0
;   generateSupport,0
;   supportExtruder,0
;   supportInfillPercentage,30
;   supportExtraInflation,0
;   denseSupportLayers,0
;   denseSupportInfillPercentage,70
;   supportLayerInterval,1
;   supportHorizontalPartOffset,0.3
;   supportUpperSeparationLayers,1
;   supportLowerSeparationLayers,1
;   supportType,0
;   supportGridSpacing,4
;   maxOverhangAngle,45
;   supportAngles,0
;   temperatureName,Extruder,Bed
;   temperatureNumber,0,0
;   temperatureSetpointCount,1,1
;   temperatureSetpointLayers,1,1
;   temperatureSetpointTemperatures,248,100
;   temperatureStabilizeAtStartup,1,1
;   temperatureHeatedBed,0,1
;   temperatureRelayBetweenLayers,0,0
;   temperatureRelayBetweenLoops,0,0
;   fanLayers,1
;   fanSpeeds,0
;   blipFanToFullPower,0
;   adjustSpeedForCooling,1
;   minSpeedLayerTime,15
;   minCoolingSpeedSlowdown,20
;   increaseFanForCooling,0
;   minFanLayerTime,45
;   maxCoolingFanSpeed,100
;   increaseFanForBridging,0
;   bridgingFanSpeed,100
;   use5D,1
;   relativeEdistances,0
;   allowEaxisZeroing,1
;   independentExtruderAxes,0
;   includeM10123,0
;   stickySupport,1
;   applyToolheadOffsets,0
;   gcodeXoffset,0
;   gcodeYoffset,0
;   gcodeZoffset,0.05
;   overrideMachineDefinition,1
;   machineTypeOverride,0
;   strokeXoverride,260
;   strokeYoverride,190
;   strokeZoverride,180
;   originOffsetXoverride,0
;   originOffsetYoverride,0
;   originOffsetZoverride,0
;   homeXdirOverride,-1
;   homeYdirOverride,-1
;   homeZdirOverride,-1
;   flipXoverride,1
;   flipYoverride,-1
;   flipZoverride,1
;   toolheadOffsets,0,0|0,0|0,0|0,0|0,0|0,0
;   overrideFirmwareConfiguration,0
;   firmwareTypeOverride,RepRap (Marlin/Repetier/Sprinter)
;   GPXconfigOverride,r2
;   baudRateOverride,115200
;   overridePrinterModels,0
;   printerModelsOverride
;   startingGcode,G28 ; home all axes,
;   layerChangeGcode,
;   retractionGcode,
;   toolChangeGcode,
;   endingGcode,G91,G1 Z20,,M104 S0 ; turn off extruder,M140 S0 ; turn off bed,M84 ; disable motors
;   exportFileFormat,gcode
;   celebration,0
;   celebrationSong,Random Song
;   postProcessing,
;   defaultSpeed,1000
;   outlineUnderspeed,0.5
;   solidInfillUnderspeed,0.8
;   supportUnderspeed,0.8
;   rapidXYspeed,4800
;   rapidZspeed,1000
;   minBridgingArea,50
;   bridgingExtraInflation,1
;   bridgingExtrusionMultiplier,1
;   bridgingSpeedMultiplier,0.8
;   filamentDiameter,1.72
;   filamentPricePerKg,600
;   filamentDensity,1.25
;   useMinPrintHeight,0
;   minPrintHeight,105
;   useMaxPrintHeight,0
;   maxPrintHeight,22
;   useDiaphragm,0
;   diaphragmLayerInterval,20
;   robustSlicing,1
;   mergeAllIntoSolid,0
;   onlyRetractWhenCrossingOutline,1
;   retractBetweenLayers,1
;   useRetractionMinTravel,0
;   retractionMinTravel,3
;   retractWhileWiping,0
;   onlyWipeOutlines,1
;   avoidCrossingOutline,1
;   maxMovementDetourFactor,3
;   toolChangeRetractionDistance,12
;   toolChangeExtraRestartDistance,-0.5
;   toolChangeRetractionSpeed,600
;   allowThinWallGapFill,1
;   thinWallAllowedOverlapPercentage,20
;   horizontalSizeCompensation,0
G90
M82
M106 S0
M140 S100
M190 S100
M104 S248 T0
M109 S248 T0
G28 ; home all axes
G92 E0
G1 E-1.2000 F1800
G1 Z0.385 F1000
; layer 1, Z = 0.135
T0
; tool H0.150 W0.600
; skirt
G1 X94.349 Y87.802 F4800
G1 Z0.185 F1000
G1 E0.0000 F540
G92 E0
G1 X95.243 Y86.850 E0.0607 F500
G1 X95.279 Y86.816 E0.0630
G1 X96.030 Y86.174 E0.1090
G1 X96.064 Y86.148 E0.1109
G1 X96.872 Y85.580 E0.1568
G1 X96.914 Y85.554 E0.1591
G1 X98.058 Y84.925 E0.2198
G1 X98.102 Y84.904 E0.2221
G1 X99.015 Y84.525 E0.2680
G1 X99.055 Y84.511 E0.2700
G1 X99.996 Y84.222 E0.3158
G1 X100.037 Y84.211 E0.3178
G1 X101.001 Y84.011 E0.3635
G1 X101.043 Y84.005 E0.3655
G1 X102.022 Y83.897 E0.4113
G1 X102.064 Y83.894 E0.4132
G1 X103.049 Y83.879 E0.4590
G1 X103.091 Y83.880 E0.4610
G1 X104.073 Y83.957 E0.5067
G1 X104.115 Y83.962 E0.5087
G1 X105.085 Y84.132 E0.5545
G1 X105.126 Y84.141 E0.5564
G1 X106.076 Y84.401 E0.6022
G1 X106.116 Y84.414 E0.6042
G1 X107.037 Y84.762 E0.6499
G1 X107.076 Y84.779 E0.6519
G1 X107.960 Y85.212 E0.6977
G1 X107.997 Y85.232 E0.6996
G1 X108.837 Y85.747 E0.7454
G1 X108.872 Y85.771 E0.7474
G1 X109.662 Y86.364 E0.7933
G1 X109.700 Y86.396 E0.7956
G1 X110.651 Y87.288 E0.8562
G1 X110.685 Y87.324 E0.8585
G1 X111.326 Y88.076 E0.9044
G1 X111.353 Y88.109 E0.9064
G1 X111.919 Y88.914 E0.9522
G1 X111.941 Y88.950 E0.9542
G1 X112.431 Y89.809 E1.0001
G1 X112.453 Y89.853 E1.0024
G1 X112.972 Y91.051 E1.0630
G1 X112.989 Y91.097 E1.0654
G1 X113.279 Y92.041 E1.1113
G1 X113.290 Y92.083 E1.1132
G1 X113.490 Y93.047 E1.1590
G1 X113.496 Y93.089 E1.1610
G1 X113.605 Y94.067 E1.2067
G1 X113.607 Y94.109 E1.2087
G1 X113.623 Y95.094 E1.2545
G1 X113.621 Y95.136 E1.2565
G1 X113.544 Y96.118 E1.3022
G1 X113.539 Y96.160 E1.3042
G1 X113.370 Y97.130 E1.3500
G1 X113.361 Y97.171 E1.3519
G1 X113.101 Y98.121 E1.3977
G1 X113.088 Y98.161 E1.3997
G1 X112.740 Y99.082 E1.4454
G1 X112.723 Y99.121 E1.4474
G1 X112.288 Y100.009 E1.4933
G1 X112.264 Y100.052 E1.4956
G1 X111.565 Y101.154 E1.5563
G1 X111.536 Y101.194 E1.5586
G1 X110.918 Y101.965 E1.6045
G1 X110.890 Y101.997 E1.6065
G1 X110.205 Y102.705 E1.6523
G1 X110.174 Y102.734 E1.6543
G1 X109.425 Y103.374 E1.7000
G1 X109.391 Y103.400 E1.7020
G1 X108.583 Y103.968 E1.7479
G1 X108.541 Y103.994 E1.7502
G1 X107.397 Y104.623 E1.8109
G1 X107.353 Y104.644 E1.8132
G1 X106.440 Y105.022 E1.8591
G1 X106.400 Y105.037 E1.8611
G1 X105.459 Y105.326 E1.9069
G1 X105.418 Y105.337 E1.9088
G1 X104.454 Y105.536 E1.9546
G1 X104.412 Y105.543 E1.9566
G1 X103.433 Y105.651 E2.0023
G1 X103.391 Y105.654 E2.0043
G1 X102.406 Y105.669 E2.0501
G1 X102.364 Y105.668 E2.0520
G1 X101.382 Y105.591 E2.0978
G1 X101.340 Y105.585 E2.0998
G1 X100.370 Y105.416 E2.1455
G1 X100.329 Y105.407 E2.1475
G1 X99.379 Y105.147 E2.1933
G1 X99.339 Y105.134 E2.1953
G1 X98.418 Y104.786 E2.2410
G1 X98.379 Y104.769 E2.2430
G1 X97.495 Y104.336 E2.2888
G1 X97.458 Y104.315 E2.2907
G1 X96.618 Y103.801 E2.3365
G1 X96.583 Y103.777 E2.3385
G1 X95.793 Y103.184 E2.3844
G1 X95.755 Y103.152 E2.3867
G1 X94.804 Y102.259 E2.4473
G1 X94.770 Y102.223 E2.4496
G1 X94.129 Y101.472 E2.4955
G1 X94.103 Y101.439 E2.4975
G1 X93.534 Y100.630 E2.5434
G1 X93.508 Y100.588 E2.5457
G1 X92.879 Y99.445 E2.6064
G1 X92.858 Y99.400 E2.6087
G1 X92.479 Y98.487 E2.6546
G1 X92.465 Y98.447 E2.6566
G1 X92.176 Y97.506 E2.7024
G1 X92.165 Y97.465 E2.7043
G1 X91.965 Y96.501 E2.7501
G1 X91.959 Y96.459 E2.7521
G1 X91.850 Y95.481 E2.7978
G1 X91.848 Y95.438 E2.7998
G1 X91.832 Y94.454 E2.8456
G1 X91.834 Y94.411 E2.8475
G1 X91.911 Y93.430 E2.8933
G1 X91.916 Y93.388 E2.8953
G1 X92.085 Y92.418 E2.9410
G1 X92.094 Y92.376 E2.9430
G1 X92.354 Y91.427 E2.9888
G1 X92.367 Y91.386 E2.9907
G1 X92.715 Y90.465 E3.0365
G1 X92.732 Y90.426 E3.0385
G1 X93.165 Y89.542 E3.0842
G1 X93.185 Y89.505 E3.0862
G1 X93.700 Y88.666 E3.1320
G1 X93.724 Y88.631 E3.1339
G1 X94.317 Y87.840 E3.1799
G1 X94.349 Y87.802 E3.1822
G1 X94.797 Y88.201 F4800
G92 E0
G1 X95.669 Y87.273 E0.0592 F500
G1 X95.681 Y87.261 E0.0600
G1 X96.409 Y86.640 E0.1045
G1 X96.420 Y86.631 E0.1051
G1 X97.203 Y86.080 E0.1496
G1 X97.217 Y86.072 E0.1504
G1 X98.332 Y85.459 E0.2095
G1 X98.347 Y85.452 E0.2103
G1 X99.232 Y85.085 E0.2548
G1 X99.245 Y85.080 E0.2554
G1 X100.159 Y84.799 E0.2999
G1 X100.173 Y84.796 E0.3006
G1 X101.109 Y84.602 E0.3450
G1 X101.123 Y84.600 E0.3457
G1 X102.074 Y84.495 E0.3901
G1 X102.088 Y84.494 E0.3908
G1 X103.044 Y84.479 E0.4352
G1 X103.058 Y84.479 E0.4359
G1 X104.011 Y84.554 E0.4803
G1 X104.025 Y84.556 E0.4810
G1 X104.967 Y84.720 E0.5254
G1 X104.981 Y84.723 E0.5261
G1 X105.904 Y84.976 E0.5705
G1 X105.917 Y84.980 E0.5712
G1 X106.812 Y85.318 E0.6156
G1 X106.825 Y85.324 E0.6163
G1 X107.683 Y85.744 E0.6607
G1 X107.696 Y85.751 E0.6614
G1 X108.511 Y86.251 E0.7058
G1 X108.523 Y86.259 E0.7065
G1 X109.288 Y86.834 E0.7510
G1 X109.301 Y86.844 E0.7518
G1 X110.228 Y87.715 E0.8109
G1 X110.239 Y87.727 E0.8116
G1 X110.861 Y88.454 E0.8561
G1 X110.870 Y88.466 E0.8568
G1 X111.420 Y89.248 E0.9012
G1 X111.427 Y89.260 E0.9019
G1 X111.902 Y90.092 E0.9464
G1 X111.909 Y90.106 E0.9472
G1 X112.415 Y91.274 E1.0063
G1 X112.420 Y91.289 E1.0071
G1 X112.702 Y92.204 E1.0516
G1 X112.705 Y92.218 E1.0522
G1 X112.899 Y93.155 E1.0967
G1 X112.902 Y93.169 E1.0973
G1 X113.007 Y94.119 E1.1418
G1 X113.008 Y94.133 E1.1424
G1 X113.023 Y95.089 E1.1869
G1 X113.022 Y95.103 E1.1876
G1 X112.947 Y96.057 E1.2320
G1 X112.946 Y96.071 E1.2327
G1 X112.781 Y97.013 E1.2771
G1 X112.778 Y97.027 E1.2778
G1 X112.526 Y97.949 E1.3222
G1 X112.522 Y97.962 E1.3229
G1 X112.184 Y98.857 E1.3673
G1 X112.178 Y98.870 E1.3680
G1 X111.757 Y99.730 E1.4125
G1 X111.749 Y99.744 E1.4132
G1 X111.067 Y100.819 E1.4724
G1 X111.058 Y100.832 E1.4732
G1 X110.459 Y101.579 E1.5177
G1 X110.450 Y101.590 E1.5183
G1 X109.784 Y102.277 E1.5628
G1 X109.773 Y102.287 E1.5635
G1 X109.046 Y102.908 E1.6079
G1 X109.035 Y102.917 E1.6086
G1 X108.252 Y103.467 E1.6531
G1 X108.238 Y103.476 E1.6538
G1 X107.123 Y104.089 E1.7130
G1 X107.108 Y104.096 E1.7137
G1 X106.223 Y104.463 E1.7582
G1 X106.210 Y104.467 E1.7589
G1 X105.296 Y104.748 E1.8034
G1 X105.282 Y104.752 E1.8040
G1 X104.346 Y104.946 E1.8485
G1 X104.332 Y104.948 E1.8491
G1 X103.381 Y105.053 E1.8936
G1 X103.367 Y105.054 E1.8942
G1 X102.411 Y105.069 E1.9387
G1 X102.397 Y105.069 E1.9393
G1 X101.444 Y104.993 E1.9838
G1 X101.430 Y104.992 E1.9844
G1 X100.488 Y104.827 E2.0289
G1 X100.474 Y104.824 E2.0295
G1 X99.551 Y104.572 E2.0740
G1 X99.538 Y104.568 E2.0746
G1 X98.643 Y104.230 E2.1191
G1 X98.630 Y104.224 E2.1198
G1 X97.772 Y103.803 E2.1642
G1 X97.759 Y103.796 E2.1649
G1 X96.944 Y103.297 E2.2093
G1 X96.932 Y103.289 E2.2100
G1 X96.167 Y102.714 E2.2545
G1 X96.154 Y102.703 E2.2552
G1 X95.227 Y101.833 E2.3143
G1 X95.216 Y101.821 E2.3151
G1 X94.594 Y101.093 E2.3596
G1 X94.585 Y101.082 E2.3603
G1 X94.035 Y100.299 E2.4048
G1 X94.026 Y100.285 E2.4055
G1 X93.413 Y99.170 E2.4647
G1 X93.406 Y99.155 E2.4654
G1 X93.039 Y98.270 E2.5099
G1 X93.034 Y98.257 E2.5106
G1 X92.753 Y97.343 E2.5550
G1 X92.750 Y97.329 E2.5557
G1 X92.556 Y96.393 E2.6001
G1 X92.553 Y96.379 E2.6008
G1 X92.448 Y95.429 E2.6452
G1 X92.447 Y95.415 E2.6459
G1 X92.432 Y94.458 E2.6904
G1 X92.433 Y94.444 E2.6910
G1 X92.508 Y93.491 E2.7355
G1 X92.509 Y93.477 E2.7361
G1 X92.674 Y92.535 E2.7806
G1 X92.677 Y92.521 E2.7812
G1 X92.929 Y91.599 E2.8257
G1 X92.934 Y91.585 E2.8263
G1 X93.271 Y90.691 E2.8708
G1 X93.277 Y90.678 E2.8714
G1 X93.698 Y89.819 E2.9159
G1 X93.704 Y89.806 E2.9165
G1 X94.204 Y88.991 E2.9610
G1 X94.212 Y88.979 E2.9616
G1 X94.787 Y88.214 E3.0061
G1 X94.797 Y88.201 E3.0069
; inner perimeter
G1 X102.555 Y100.266 F4800
G92 E0
G1 X102.039 Y100.225 E0.0241 F469
G1 X101.529 Y100.136 E0.0481
G1 X101.029 Y100.000 E0.0722
G1 X100.545 Y99.817 E0.0963
G1 X100.080 Y99.589 E0.1203
G1 X99.639 Y99.319 E0.1444
G1 X99.197 Y98.987 E0.1701
G1 X98.964 Y98.781 E0.1845
G1 X98.745 Y98.563 E0.1989
G1 X98.386 Y98.142 E0.2246
G1 X98.068 Y97.690 E0.2503
G1 X97.910 Y97.423 E0.2647
G1 X97.769 Y97.147 E0.2791
G1 X97.558 Y96.636 E0.3048
G1 X97.405 Y96.141 E0.3289
G1 X97.300 Y95.634 E0.3530
G1 X97.243 Y95.119 E0.3770
G1 X97.235 Y94.602 E0.4011
G1 X97.276 Y94.086 E0.4251
G1 X97.365 Y93.576 E0.4492
G1 X97.501 Y93.076 E0.4733
G1 X97.684 Y92.592 E0.4973
G1 X97.912 Y92.127 E0.5214
G1 X98.182 Y91.686 E0.5455
G1 X98.493 Y91.272 E0.5695
G1 X98.890 Y90.835 E0.5970
G1 X98.912 Y90.814 E0.5984
G1 X99.360 Y90.432 E0.6257
G1 X99.812 Y90.114 E0.6514
G1 X100.079 Y89.956 E0.6658
G1 X100.355 Y89.815 E0.6802
G1 X100.866 Y89.604 E0.7059
G1 X101.361 Y89.451 E0.7300
G1 X101.868 Y89.346 E0.7541
G1 X102.382 Y89.290 E0.7781
G1 X102.900 Y89.282 E0.8022
G1 X103.416 Y89.322 E0.8263
G1 X103.926 Y89.411 E0.8503
G1 X104.426 Y89.548 E0.8744
G1 X104.910 Y89.731 E0.8985
G1 X105.375 Y89.959 E0.9225
G1 X105.816 Y90.229 E0.9466
G1 X106.258 Y90.561 E0.9723
G1 X106.491 Y90.766 E0.9867
G1 X106.710 Y90.985 E1.0011
G1 X107.069 Y91.405 E1.0268
G1 X107.367 Y91.829 E1.0509
G1 X107.641 Y92.309 E1.0766
G1 X107.773 Y92.590 E1.0910
G1 X107.887 Y92.878 E1.1054
G1 X108.050 Y93.407 E1.1311
G1 X108.155 Y93.914 E1.1552
G1 X108.212 Y94.428 E1.1792
G1 X108.220 Y94.946 E1.2033
G1 X108.179 Y95.462 E1.2273
G1 X108.090 Y95.972 E1.2514
G1 X107.954 Y96.471 E1.2755
G1 X107.771 Y96.956 E1.2995
G1 X107.527 Y97.452 E1.3252
G1 X107.370 Y97.719 E1.3396
G1 X107.196 Y97.976 E1.3541
G1 X106.850 Y98.407 E1.3798
G1 X106.489 Y98.780 E1.4039
G1 X106.095 Y99.116 E1.4279
G1 X105.643 Y99.434 E1.4536
G1 X105.376 Y99.592 E1.4680
G1 X105.100 Y99.732 E1.4824
G1 X104.589 Y99.944 E1.5082
G1 X104.094 Y100.096 E1.5322
G1 X103.587 Y100.201 E1.5563
G1 X103.073 Y100.258 E1.5803
G1 X102.555 Y100.266 E1.6044
; inner perimeter
G1 X102.536 Y100.866 F4800
G92 E0
G1 X101.963 Y100.821 E0.0267 F438
G1 X101.398 Y100.723 E0.0534
G1 X100.844 Y100.571 E0.0801
G1 X100.307 Y100.368 E0.1068
G1 X99.791 Y100.116 E0.1335
G1 X99.301 Y99.815 E0.1602
G1 X98.817 Y99.452 E0.1883
G1 X98.553 Y99.219 E0.2047
G1 X98.304 Y98.970 E0.2210
G1 X97.911 Y98.510 E0.2491
G1 X97.563 Y98.015 E0.2773
G1 X97.384 Y97.712 E0.2936
G1 X97.224 Y97.398 E0.3100
G1 X96.992 Y96.839 E0.3381
G1 X96.824 Y96.290 E0.3648
G1 X96.707 Y95.728 E0.3915
G1 X96.644 Y95.157 E0.4182
G1 X96.635 Y94.583 E0.4449
G1 X96.680 Y94.010 E0.4716
G1 X96.779 Y93.445 E0.4983
G1 X96.930 Y92.891 E0.5250
G1 X97.133 Y92.353 E0.5517
G1 X97.386 Y91.838 E0.5784
G1 X97.686 Y91.348 E0.6051
G1 X98.030 Y90.889 E0.6318
G1 X98.459 Y90.417 E0.6614
G1 X98.508 Y90.370 E0.6646
G1 X98.991 Y89.957 E0.6941
G1 X99.486 Y89.609 E0.7222
G1 X99.790 Y89.430 E0.7386
G1 X100.104 Y89.270 E0.7550
G1 X100.663 Y89.039 E0.7831
G1 X101.212 Y88.870 E0.8098
G1 X101.774 Y88.753 E0.8365
G1 X102.345 Y88.690 E0.8632
G1 X102.919 Y88.681 E0.8899
G1 X103.492 Y88.726 E0.9166
G1 X104.057 Y88.825 E0.9433
G1 X104.611 Y88.977 E0.9700
G1 X105.148 Y89.180 E0.9966
G1 X105.664 Y89.432 E1.0233
G1 X106.154 Y89.732 E1.0500
G1 X106.638 Y90.095 E1.0782
G1 X106.902 Y90.329 E1.0945
G1 X107.151 Y90.577 E1.1109
G1 X107.544 Y91.037 E1.1390
G1 X107.874 Y91.507 E1.1657
G1 X108.174 Y92.033 E1.1938
G1 X108.324 Y92.351 E1.2102
G1 X108.454 Y92.679 E1.2266
G1 X108.631 Y93.257 E1.2547
G1 X108.748 Y93.820 E1.2814
